eddiekon/youBot/outputs/trajectory_results.csv
# chassis phi, chassis x, chassis y, J1, J2, J3, J4, J5, W1, W2, W3, W4
1.000000,0.000000,0.000000,0.000000,1.000000,0.000000,0.000000,0.000000,1.000000,0.199200,0.000000,0.753500,0.000000
1.000000,0.000000,0.000006,0.000000,1.000000,0.000000,-0.000006,0.000000,1.000000,0.199202,0.000000,0.753499,0.000000
1.000000,0.000000,0.000049,0.000000,1.000000,0.000000,-0.000049,0.000000,1.000000,0.199212,0.000000,0.753489,0.000000
1.000000,0.000000,0.000163,0.000000,1.000000,0.000000,-0.000163,0.000000,1.000000,0.199241,0.000000,0.753464,0.000000
1.000000,0.000000,0.000382,0.000000,1.000000,0.000000,-0.000382,0.000000,1.000000,0.199295,0.000000,0.753416,0.000000
1.000000,0.000000,0.000739,0.000000,1.000000,0.000000,-0.000739,0.000000,1.000000,0.199385,0.000000,0.753338,0.000000
0.999999,0.000000,0.001264,0.000000,1.000000,0.000000,-0.001264,0.000000,0.999999,0.199516,0.000000,0.753223,0.000000
0.999998,0.000000,0.001988,0.000000,1.000000,0.000000,-0.001988,0.000000,0.999998,0.199697,0.000000,0.753064,0.000000
0.999996,0.000000,0.002938,0.000000,1.000000,0.000000,-0.002938,0.000000,0.999996,0.199934,0.000000,0.752856,0.000000
0.999991,0.000000,0.004142,0.000000,1.000000,0.000000,-0.004142,0.000000,0.999991,0.200235,0.000000,0.752592,0.000000
0.999984,0.000000,0.005625,0.000000,1.000000,0.000000,-0.005625,0.000000,0.999984,0.200605,0.000000,0.752267,0.000000
0.999973,0.000000,0.007412,0.000000,1.000000,0.000000,-0.007412,0.000000,0.999973,0.201052,0.000000,0.751876,0.000000
0.999955,0.000000,0.009525,0.000000,1.000000,0.000000,-0.009525,0.000000,0.999955,0.201580,0.000000,0.751413,0.000000
0.999928,0.000000,0.011987,0.000000,1.000000,0.000000,-0.011987,0.000000,0.999928,0.202195,0.000000,0.750873,0.000000
0.999890,0.000000,0.014819,0.000000,1.000000,0.000000,-0.014819,0.000000,0.999890,0.202903,0.000000,0.750252,0.000000
0.999837,0.000000,0.018041,0.000000,1.000000,0.000000,-0.018041,0.000000,0.999837,0.203707,0.000000,0.749546,0.000000
0.999765,0.000000,0.021669,0.000000,1.000000,0.000000,-0.021669,0.000000,0.999765,0.204614,0.000000,0.748751,0.000000
0.999669,0.000000,0.025722,0.000000,1.000000,0.000000,-0.025722,0.000000,0.999669,0.205627,0.000000,0.747862,0.000000
0.999543,0.000000,0.030215,0.000000,1.000000,0.000000,-0.030215,0.000000,0.999543,0.206750,0.000000,0.746877,0.000000
0.999382,0.000000,0.035164,0.000000,1.000000,0.000000,-0.035164,0.000000,0.999382,0.207987,0.000000,0.745792,0.000000
0.999176,0.000000,0.040581,0.000000,1.000000,0.000000,-0.040581,0.000000,0.999176,0.209342,0.000000,0.744604,0.000000
0.998919,0.000000,0.046479,0.000000,1.000000,0.000000,-0.046479,0.000000,0.998919,0.210817,0.000000,0.743310,0.000000
0.998601,0.000000,0.052870,0.000000,1.000000,0.000000,-0.052870,0.000000,0.998601,0.212415,0.000000,0.741908,0.000000
0.998213,0.000000,0.059762,0.000000,1.000000,0.000000,-0.059762,0.000000,0.998213,0.214140,0.000000,0.740395,0.000000
0.997742,0.000000,0.067165,0.000000,1.000000,0.000000,-0.067165,0.000000,0.997742,0.215993,0.000000,0.738769,0.000000
0.997177,0.000000,0.075087,0.000000,1.000000,0.000000,-0.075087,0.000000,0.997177,0.217977,0.000000,0.737029,0.000000
0.996505,0.000000,0.083533,0.000000,1.000000,0.000000,-0.083533,0.000000,0.996505,0.220094,0.000000,0.735172,0.000000
0.995712,0.000000,0.092508,0.000000,1.000000,0.000000,-0.092508,0.000000,0.995712,0.222345,0.000000,0.733197,0.000000
0.994783,0.000000,0.102017,0.000000,1.000000,0.000000,-0.102017,0.000000,0.994783,0.224732,0.000000,0.731104,0.000000
0.993701,0.000000,0.112062,0.000000,1.000000,0.000000,-0.112062,0.000000,0.993701,0.227256,0.000000,0.728890,0.000000
0.992451,0.000000,0.122643,0.000000,1.000000,0.000000,-0.122643,0.000000,0.992451,0.229918,0.000000,0.726555,0.000000
0.991014,0.000000,0.133760,0.000000,1.000000,0.000000,-0.133760,0.000000,0.991014,0.232719,0.000000,0.724098,0.000000
0.989371,0.000000,0.145412,0.000000,1.000000,0.000000,-0.145412,0.000000,0.989371,0.235659,0.000000,0.721519,0.000000
0.987504,0.000000,0.157595,0.000000,1.000000,0.000000,-0.157595,0.000000,0.987504,0.238738,0.000000,0.718818,0.000000
0.985391,0.000000,0.170305,0.000000,1.000000,0.000000,-0.170305,0.000000,0.985391,0.241957,0.000000,0.715994,0.000000
0.983013,0.000000,0.183536,0.000000,1.000000,0.000000,-0.183536,0.000000,0.983013,0.245316,0.000000,0.713048,0.000000
0.980347,0.000000,0.197280,0.000000,1.000000,0.000000,-0.197280,0.000000,0.980347,0.248814,0.000000,0.709980,0.000000
0.977372,0.000000,0.211528,0.000000,1.000000,0.000000,-0.211528,0.000000,0.977372,0.252450,0.000000,0.706790,0.000000
0.974065,0.000000,0.226270,0.000000,1.000000,0.000000,-0.226270,0.000000,0.974065,0.256225,0.000000,0.703479,0.000000
0.970403,0.000000,0.241492,0.000000,1.000000,0.000000,-0.241492,0.000000,0.970403,0.260136,0.000000,0.700048,0.000000
0.966363,0.000000,0.257181,0.000000,1.000000,0.000000,-0.257181,0.000000,0.966363,0.264184,0.000000,0.696497,0.000000
0.961923,0.000000,0.273322,0.000000,1.000000,0.000000,-0.273322,0.000000,0.961923,0.268367,0.000000,0.692828,0.000000
0.957058,0.000000,0.289898,0.000000,1.000000,0.000000,-0.289898,0.000000,0.957058,0.272682,0.000000,0.689043,0.000000
0.951746,0.000000,0.306888,0.000000,1.000000,0.000000,-0.306888,0.000000,0.951746,0.277130,0.000000,0.685141,0.000000
0.945963,0.000000,0.324274,0.000000,1.000000,0.000000,-0.324274,0.000000,0.945963,0.281708,0.000000,0.681126,0.000000
0.939688,0.000000,0.342033,0.000000,1.000000,0.000000,-0.342033,0.000000,0.939688,0.286414,0.000000,0.676998,0.000000
0.932898,0.000000,0.360141,0.000000,1.000000,0.000000,-0.360141,0.000000,0.932898,0.291245,0.000000,0.672760,0.000000
0.925571,0.000000,0.378573,0.000000,1.000000,0.000000,-0.378573,0.000000,0.925571,0.296201,0.000000,0.668413,0.000000
0.917688,0.000000,0.397302,0.000000,1.000000,0.000000,-0.397302,0.000000,0.917688,0.301278,0.000000,0.663959,0.000000
0.909227,0.000000,0.416300,0.000000,1.000000,0.000000,-0.416300,0.000000,0.909227,0.306474,0.000000,0.659402,0.000000
0.900171,0.000000,0.435537,0.000000,1.000000,0.000000,-0.435537,0.000000,0.900171,0.311786,0.000000,0.654742,0.000000
0.890501,0.000000,0.454981,0.000000,1.000000,0.000000,-0.454981,0.000000,0.890501,0.317211,0.000000,0.649983,0.000000
0.880201,0.000000,0.474600,0.000000,1.000000,0.000000,-0.474600,0.000000,0.880201,0.322748,0.000000,0.645126,0.000000
0.869257,0.000000,0.494361,0.000000,1.000000,0.000000,-0.494361,0.000000,0.869257,0.328391,0.000000,0.640176,0.000000
0.857654,0.000000,0.514227,0.000000,1.000000,0.000000,-0.514227,0.000000,0.857654,0.334139,0.000000,0.635134,0.000000
0.845382,0.000000,0.534163,0.000000,1.000000,0.000000,-0.534163,0.000000,0.845382,0.339988,0.000000,0.630003,0.000000
0.832429,0.000000,0.554131,0.000000,1.000000,0.000000,-0.554131,0.000000,0.832429,0.345935,0.000000,0.624787,0.000000
0.818789,0.000000,0.574095,0.000000,1.000000,0.000000,-0.574095,0.000000,0.818789,0.351976,0.000000,0.619488,0.000000
0.804454,0.000000,0.594015,0.000000,1.000000,0.000000,-0.594015,0.000000,0.804454,0.358107,0.000000,0.614110,0.000000
0.789422,0.000000,0.613851,0.000000,1.000000,0.000000,-0.613851,0.000000,0.789422,0.364326,0.000000,0.608655,0.000000
0.773690,0.000000,0.633565,0.000000,1.000000,0.000000,-0.633565,0.000000,0.773690,0.370627,0.000000,0.603127,0.000000
0.757258,0.000000,0.653116,0.000000,1.000000,0.000000,-0.653116,0.000000,0.757258,0.377008,0.000000,0.597530,0.000000
0.740130,0.000000,0.672464,0.000000,1.000000,0.000000,-0.672464,0.000000,0.740130,0.383464,0.000000,0.591867,0.000000
0.722310,0.000000,0.691569,0.000000,1.000000,0.000000,-0.691569,0.000000,0.722310,0.389992,0.000000,0.586141,0.000000
0.703806,0.000000,0.710392,0.000000,1.000000,0.000000,-0.710392,0.000000,0.703806,0.396586,0.000000,0.580357,0.000000
0.684628,0.000000,0.728892,0.000000,1.000000,0.000000,-0.728892,0.000000,0.684628,0.403244,0.000000,0.574517,0.000000
0.664788,0.000000,0.747032,0.000000,1.000000,0.000000,-0.747032,0.000000,0.664788,0.409960,0.000000,0.568625,0.000000
0.644301,0.000000,0.764772,0.000000,1.000000,0.000000,-0.764772,0.000000,0.644301,0.416731,0.000000,0.562686,0.000000
0.623184,0.000000,0.782075,0.000000,1.000000,0.000000,-0.782075,0.000000,0.623184,0.423552,0.000000,0.556703,0.000000
0.601456,0.000000,0.798906,0.000000,1.000000,0.000000,-0.798906,0.000000,0.601456,0.430419,0.000000,0.550679,0.000000
0.579139,0.000000,0.815229,0.000000,1.000000,0.000000,-0.815229,0.000000,0.579139,0.437327,0.000000,0.544620,0.000000
0.556257,0.000000,0.831010,0.000000,1.000000,0.000000,-0.831010,0.000000,0.556257,0.444272,0.000000,0.538528,0.000000
0.532836,0.000000,0.846219,0.000000,1.000000,0.000000,-0.846219,0.000000,0.532836,0.451249,0.000000,0.532407,0.000000
0.508903,0.000000,0.860824,0.000000,1.000000,0.000000,-0.860824,0.000000,0.508903,0.458254,0.000000,0.526263,0.000000
0.484489,0.000000,0.874797,0.000000,1.000000,0.000000,-0.874797,0.000000,0.484489,0.465282,0.000000,0.520098,0.000000
0.459626,0.000000,0.888112,0.000000,1.000000,0.000000,-0.888112,0.000000,0.459626,0.472329,0.000000,0.513917,0.000000
0.434347,0.000000,0.900745,0.000000,1.000000,0.000000,-0.900745,0.000000,0.434347,0.479390,0.000000,0.507723,0.000000
0.408688,0.000000,0.912674,0.000000,1.000000,0.000000,-0.912674,0.000000,0.408688,0.486459,0.000000,0.501522,0.000000
0.382683,0.000000,0.923880,0.000000,1.000000,0.000000,-0.923880,0.000000,0.382683,0.493534,0.000000,0.495316,0.000000
0.356372,0.000000,0.934344,0.000000,1.000000,0.000000,-0.934344,0.000000,0.356372,0.500609,0.000000,0.489110,0.000000
0.329793,0.000000,0.944053,0.000000,1.000000,0.000000,-0.944053,0.000000,0.329793,0.507678,0.000000,0.482909,0.000000
0.302986,0.000000,0.952995,0.000000,1.000000,0.000000,-0.952995,0.000000,0.302986,0.514739,0.000000,0.476715,0.000000
0.275989,0.000000,0.961161,0.000000,1.000000,0.000000,-0.961161,0.000000,0.275989,0.521786,0.000000,0.470534,0.000000
0.248846,0.000000,0.968543,0.000000,1.000000,0.000000,-0.968543,0.000000,0.248846,0.528814,0.000000,0.464369,0.000000
0.221595,0.000000,0.975139,0.000000,1.000000,0.000000,-0.975139,0.000000,0.221595,0.535819,0.000000,0.458225,0.000000
0.194280,0.000000,0.980946,0.000000,1.000000,0.000000,-0.980946,0.000000,0.194280,0.542796,0.000000,0.452104,0.000000
0.166940,0.000000,0.985967,0.000000,1.000000,0.000000,-0.985967,0.000000,0.166940,0.549741,0.000000,0.446012,0.000000
0.139618,0.000000,0.990205,0.000000,1.000000,0.000000,-0.990205,0.000000,0.139618,0.556649,0.000000,0.439953,0.000000
0.112353,0.000000,0.993668,0.000000,1.000000,0.000000,-0.993668,0.000000,0.112353,0.563516,0.000000,0.433929,0.000000
0.085185,0.000000,0.996365,0.000000,1.000000,0.000000,-0.996365,0.000000,0.085185,0.570337,0.000000,0.427946,0.000000
0.058155,0.000000,0.998308,0.000000,1.000000,0.000000,-0.998308,0.000000,0.058155,0.577108,0.000000,0.422007,0.000000
0.031299,0.000000,0.999510,0.000000,1.000000,0.000000,-0.999510,0.000000,0.031299,0.583824,0.000000,0.416115,0.000000
0.004657,0.000000,0.999989,0.000000,1.000000,0.000000,-0.999989,0.000000,0.004657,0.590482,0.000000,0.410275,0.000000
-0.021737,0.000000,0.999764,0.000000,1.000000,0.000000,-0.999764,0.000000,-0.021737,0.597076,0.000000,0.404491,0.000000
-0.047847,0.000000,0.998855,0.000000,1.000000,0.000000,-0.998855,0.000000,-0.047847,0.603604,0.000000,0.398765,0.000000
-0.073639,0.000000,0.997285,0.000000,1.000000,0.000000,-0.997285,0.000000,-0.073639,0.610060,0.000000,0.393102,0.000000
-0.099083,0.000000,0.995079,0.000000,1.000000,0.000000,-0.995079,0.000000,-0.099083,0.616441,0.000000,0.387505,0.000000
-0.124147,0.000000,0.992264,0.000000,1.000000,0.000000,-0.992264,0.000000,-0.124147,0.622742,0.000000,0.381977,0.000000
-0.148803,0.000000,0.988867,0.000000,1.000000,0.000000,-0.988867,0.000000,-0.148803,0.628961,0.000000,0.376522,0.000000
-0.173025,0.000000,0.984917,0.000000,1.000000,0.000000,-0.984917,0.000000,-0.173025,0.635092,0.000000,0.371144,0.000000
-0.196786,0.000000,0.980446,0.000000,1.000000,0.000000,-0.980446,0.000000,-0.196786,0.641133,0.000000,0.365845,0.000000
-0.220065,0.000000,0.975485,0.000000,1.000000,0.000000,-0.975485,0.000000,-0.220065,0.647080,0.000000,0.360629,0.000000
-0.242840,0.000000,0.970066,0.000000,1.000000,0.000000,-0.970066,0.000000,-0.242840,0.652929,0.000000,0.355498,0.000000
-0.265092,0.000000,0.964223,0.000000,1.000000,0.000000,-0.964223,0.000000,-0.265092,0.658677,0.000000,0.350456,0.000000
-0.286803,0.000000,0.957990,0.000000,1.000000,0.000000,-0.957990,0.000000,-0.286803,0.664320,0.000000,0.345506,0.000000
-0.307959,0.000000,0.951400,0.000000,1.000000,0.000000,-0.951400,0.000000,-0.307959,0.669856,0.000000,0.340649,0.000000
-0.328546,0.000000,0.944488,0.000000,1.000000,0.000000,-0.944488,0.000000,-0.328546,0.675282,0.000000,0.335890,0.000000
-0.348552,0.000000,0.937289,0.000000,1.000000,0.000000,-0.937289,0.000000,-0.348552,0.680594,0.000000,0.331230,0.000000
-0.367968,0.000000,0.929838,0.000000,1.000000,0.000000,-0.929838,0.000000,-0.367968,0.685790,0.000000,0.326673,0.000000
-0.386786,0.000000,0.922170,0.000000,1.000000,0.000000,-0.922170,0.000000,-0.386786,0.690867,0.000000,0.322219,0.000000
-0.405000,0.000000,0.914317,0.000000,1.000000,0.000000,-0.914317,0.000000,-0.405000,0.695823,0.000000,0.317872,0.000000
-0.422606,0.000000,0.906314,0.000000,1.000000,0.000000,-0.906314,0.000000,-0.422606,0.700654,0.000000,0.313634,0.000000
-0.439600,0.000000,0.898193,0.000000,1.000000,0.000000,-0.898193,0.000000,-0.439600,0.705360,0.000000,0.309506,0.000000
-0.455983,0.000000,0.889989,0.000000,1.000000,0.000000,-0.889989,0.000000,-0.455983,0.709938,0.000000,0.305491,0.000000
-0.471753,0.000000,0.881730,0.000000,1.000000,0.000000,-0.881730,0.000000,-0.471753,0.714386,0.000000,0.301589,0.000000
-0.486914,0.000000,0.873450,0.000000,1.000000,0.000000,-0.873450,0.000000,-0.486914,0.718701,0.000000,0.297804,0.000000
-0.501467,0.000000,0.865177,0.000000,1.000000,0.000000,-0.865177,0.000000,-0.501467,0.722884,0.000000,0.294135,0.000000
-0.515418,0.000000,0.856939,0.000000,1.000000,0.000000,-0.856939,0.000000,-0.515418,0.726932,0.000000,0.290584,0.000000
-0.528771,0.000000,0.848765,0.000000,1.000000,0.000000,-0.848765,0.000000,-0.528771,0.730843,0.000000,0.287153,0.000000
-0.541533,0.000000,0.840679,0.000000,1.000000,0.000000,-0.840679,0.000000,-0.541533,0.734618,0.000000,0.283842,0.000000
-0.553712,0.000000,0.832708,0.000000,1.000000,0.000000,-0.832708,0.000000,-0.553712,0.738254,0.000000,0.280652,0.000000
-0.565316,0.000000,0.824875,0.000000,1.000000,0.000000,-0.824875,0.000000,-0.565316,0.741752,0.000000,0.277584,0.000000
-0.576353,0.000000,0.817201,0.000000,1.000000,0.000000,-0.817201,0.000000,-0.576353,0.745111,0.000000,0.274638,0.000000
-0.586834,0.000000,0.809707,0.000000,1.000000,0.000000,-0.809707,0.000000,-0.586834,0.748330,0.000000,0.271814,0.000000
-0.596769,0.000000,0.802413,0.000000,1.000000,0.000000,-0.802413,0.000000,-0.596769,0.751409,0.000000,0.269113,0.000000
-0.606170,0.000000,0.795335,0.000000,1.000000,0.000000,-0.795335,0.000000,-0.606170,0.754349,0.000000,0.266534,0.000000
-0.615047,0.000000,0.788490,0.000000,1.000000,0.000000,-0.788490,0.000000,-0.615047,0.757150,0.000000,0.264077,0.000000
-0.623413,0.000000,0.781892,0.000000,1.000000,0.000000,-0.781892,0.000000,-0.623413,0.759812,0.000000,0.261742,0.000000
-0.631280,0.000000,0.775555,0.000000,1.000000,0.000000,-0.775555,0.000000,-0.631280,0.762336,0.000000,0.259528,0.000000
-0.638661,0.000000,0.769488,0.000000,1.000000,0.000000,-0.769488,0.000000,-0.638661,0.764723,0.000000,0.257435,0.000000
-0.645569,0.000000,0.763702,0.000000,1.000000,0.000000,-0.763702,0.000000,-0.645569,0.766974,0.000000,0.255460,0.000000
-0.652016,0.000000,0.758205,0.000000,1.000000,0.000000,-0.758205,0.000000,-0.652016,0.769091,0.000000,0.253603,0.000000
-0.658017,0.000000,0.753003,0.000000,1.000000,0.000000,-0.753003,0.000000,-0.658017,0.771075,0.000000,0.251863,0.000000
-0.663585,0.000000,0.748101,0.000000,1.000000,0.000000,-0.748101,0.000000,-0.663585,0.772928,0.000000,0.250237,0.000000
-0.668733,0.000000,0.743502,0.000000,1.000000,0.000000,-0.743502,0.000000,-0.668733,0.774653,0.000000,0.248724,0.000000
-0.673477,0.000000,0.739208,0.000000,1.000000,0.000000,-0.739208,0.000000,-0.673477,0.776251,0.000000,0.247322,0.000000
-0.677829,0.000000,0.735220,0.000000,1.000000,0.000000,-0.735220,0.000000,-0.677829,0.777726,0.000000,0.246028,0.000000
-0.681805,0.000000,0.731534,0.000000,1.000000,0.000000,-0.731534,0.000000,-0.681805,0.779081,0.000000,0.244840,0.000000
-0.685418,0.000000,0.728149,0.000000,1.000000,0.000000,-0.728149,0.000000,-0.685418,0.780318,0.000000,0.243755,0.000000
-0.688685,0.000000,0.725061,0.000000,1.000000,0.000000,-0.725061,0.000000,-0.688685,0.781441,0.000000,0.242770,0.000000
-0.691618,0.000000,0.722263,0.000000,1.000000,0.000000,-0.722263,0.000000,-0.691618,0.782454,0.000000,0.241881,0.000000
-0.694235,0.000000,0.719748,0.000000,1.000000,0.000000,-0.719748,0.000000,-0.694235,0.783360,0.000000,0.241086,0.000000
-0.696550,0.000000,0.717508,0.000000,1.000000,0.000000,-0.717508,0.000000,-0.696550,0.784165,0.000000,0.240380,0.000000
-0.698580,0.000000,0.715532,0.000000,1.000000,0.000000,-0.715532,0.000000,-0.698580,0.784873,0.000000,0.239759,0.000000
-0.700339,0.000000,0.713810,0.000000,1.000000,0.000000,-0.713810,0.000000,-0.700339,0.785488,0.000000,0.239220,0.000000
-0.701847,0.000000,0.712328,0.000000,1.000000,0.000000,-0.712328,0.000000,-0.701847,0.786016,0.000000,0.238756,0.000000
-0.703118,0.000000,0.711073,0.000000,1.000000,0.000000,-0.711073,0.000000,-0.703118,0.786463,0.000000,0.238365,0.000000
-0.704172,0.000000,0.710029,0.000000,1.000000,0.000000,-0.710029,0.000000,-0.704172,0.786833,0.000000,0.238040,0.000000
-0.705026,0.000000,0.709181,0.000000,1.000000,0.000000,-0.709181,0.000000,-0.705026,0.787134,0.000000,0.237776,0.000000
-0.705700,0.000000,0.708511,0.000000,1.000000,0.000000,-0.708511,0.000000,-0.705700,0.787371,0.000000,0.237568,0.000000
-0.706212,0.000000,0.708000,0.000000,1.000000,0.000000,-0.708000,0.000000,-0.706212,0.787552,0.000000,0.237409,0.000000
-0.706584,0.000000,0.707629,0.000000,1.000000,0.000000,-0.707629,0.000000,-0.706584,0.787683,0.000000,0.237294,0.000000
-0.706837,0.000000,0.707377,0.000000,1.000000,0.000000,-0.707377,0.000000,-0.706837,0.787773,0.000000,0.237216,0.000000
-0.706992,0.000000,0.707222,0.000000,1.000000,0.000000,-0.707222,0.000000,-0.706992,0.787827,0.000000,0.237168,0.000000
-0.707072,0.000000,0.707141,0.000000,1.000000,0.000000,-0.707141,0.000000,-0.707072,0.787856,0.000000,0.237143,0.000000
-0.707102,0.000000,0.707111,0.000000,1.000000,0.000000,-0.707111,0.000000,-0.707102,0.787866,0.000000,0.237133,0.000000
-0.707107,0.000000,0.707107,0.000000,1.000000,0.000000,-0.707107,0.000000,-0.707107,0.787868,0.000000,0.237132,0.000000
-0.707107,0.000000,0.707107,0.000000,1.000000,0.000000,-0.707107,0.000000,-0.707107,0.787868,0.000000,0.237132,0.000000
-0.707107,0.000000,0.707107,0.000000,1.000000,0.000000,-0.707107,0.000000,-0.707107,0.787877,0.000000,0.237123,0.000000
-0.707107,0.000000,0.707107,0.000000,1.000000,0.000000,-0.707107,0.000000,-0.707107,0.787941,0.000000,0.237059,0.000000
-0.707107,0.000000,0.707107,0.000000,1.000000,0.000000,-0.707107,0.000000,-0.707107,0.788108,0.000000,0.236892,0.000000
-0.707107,0.000000,0.707107,0.000000,1.000000,0.000000,-0.707107,0.000000,-0.707107,0.788423,0.000000,0.236577,0.000000
-0.707107,0.000000,0.707107,0.000000,1.000000,0.000000,-0.707107,0.000000,-0.707107,0.788923,0.000000,0.236077,0.000000
-0.707107,0.000000,0.707107,0.000000,1.000000,0.000000,-0.707107,0.000000,-0.707107,0.789645,0.000000,0.235355,0.000000
-0.707107,0.000000,0.707107,0.000000,1.000000,0.000000,-0.707107,0.000000,-0.707107,0.790615,0.000000,0.234385,0.000000
-0.707107,0.000000,0.707107,0.000000,1.000000,0.000000,-0.707107,0.000000,-0.707107,0.791860,0.000000,0.233140,0.000000
-0.707107,0.000000,0.707107,0.000000,1.000000,0.000000,-0.707107,0.000000,-0.707107,0.793400,0.000000,0.231600,0.000000
-0.707107,0.000000,0.707107,0.000000,1.000000,0.000000,-0.707107,0.000000,-0.707107,0.795250,0.000000,0.229750,0.000000
-0.707107,0.000000,0.707107,0.000000,1.000000,0.000000,-0.707107,0.000000,-0.707107,0.797423,0.000000,0.227577,0.000000
-0.707107,0.000000,0.707107,0.000000,1.000000,0.000000,-0.707107,0.000000,-0.707107,0.799927,0.000000,0.225073,0.000000
-0.707107,0.000000,0.707107,0.000000,1.000000,0.000000,-0.707107,0.000000,-0.707107,0.802767,0.000000,0.222233,0.000000
-0.707107,0.000000,0.707107,0.000000,1.000000,0.000000,-0.707107,0.000000,-0.707107,0.805944,0.000000,0.219056,0.000000
-0.707107,0.000000,0.707107,0.000000,1.000000,0.000000,-0.707107,0.000000,-0.707107,0.809456,0.000000,0.215544,0.000000
-0.707107,0.000000,0.707107,0.000000,1.000000,0.000000,-0.707107,0.000000,-0.707107,0.813299,0.000000,0.211701,0.000000
-0.707107,0.000000,0.707107,0.000000,1.000000,0.000000,-0.707107,0.000000,-0.707107,0.817465,0.000000,0.207535,0.000000
-0.707107,0.000000,0.707107,0.000000,1.000000,0.000000,-0.707107,0.000000,-0.707107,0.821942,0.000000,0.203058,0.000000
-0.707107,0.000000,0.707107,0.000000,1.000000,0.000000,-0.707107,0.000000,-0.707107,0.826718,0.000000,0.198282,0.000000
-0.707107,0.000000,0.707107,0.000000,1.000000,0.000000,-0.707107,0.000000,-0.707107,0.831777,0.000000,0.193223,0.000000
-0.707107,0.000000,0.707107,0.000000,1.000000,0.000000,-0.707107,0.000000,-0.707107,0.837103,0.000000,0.187897,0.000000
-0.707107,0.000000,0.707107,0.000000,1.000000,0.000000,-0.707107,0.000000,-0.707107,0.842675,0.000000,0.182325,0.000000
-0.707107,0.000000,0.707107,0.000000,1.000000,0.000000,-0.707107,0.000000,-0.707107,0.848472,0.000000,0.176528,0.000000
-0.707107,0.000000,0.707107,0.000000,1.000000,0.000000,-0.707107,0.000000,-0.707107,0.854472,0.000000,0.170528,0.000000
-0.707107,0.000000,0.707107,0.000000,1.000000,0.000000,-0.707107,0.000000,-0.707107,0.860650,0.000000,0.164350,0.000000
-0.707107,0.000000,0.707107,0.000000,1.000000,0.000000,-0.707107,0.000000,-0.707107,0.866981,0.000000,0.158019,0.000000
-0.707107,0.000000,0.707107,0.000000,1.000000,0.000000,-0.707107,0.000000,-0.707107,0.873438,0.000000,0.151562,0.000000
-0.707107,0.000000,0.707107,0.000000,1.000000,0.000000,-0.707107,0.000000,-0.707107,0.879995,0.000000,0.145005,0.000000
-0.707107,0.000000,0.707107,0.000000,1.000000,0.000000,-0.707107,0.000000,-0.707107,0.886623,0.000000,0.138377,0.000000
-0.707107,0.000000,0.707107,0.000000,1.000000,0.000000,-0.707107,0.000000,-0.707107,0.893294,0.000000,0.131706,0.000000
-0.707107,0.000000,0.707107,0.000000,1.000000,0.000000,-0.707107,0.000000,-0.707107,0.899979,0.000000,0.125021,0.000000
-0.707107,0.000000,0.707107,0.000000,1.000000,0.000000,-0.707107,0.000000,-0.707107,0.906651,0.000000,0.118349,0.000000
-0.707107,0.000000,0.707107,0.000000,1.000000,0.000000,-0.707107,0.000000,-0.707107,0.913279,0.000000,0.111721,0.000000
-0.707107,0.000000,0.707107,0.000000,1.000000,0.000000,-0.707107,0.000000,-0.707107,0.919835,0.000000,0.105165,0.000000
-0.707107,0.000000,0.707107,0.000000,1.000000,0.000000,-0.707107,0.000000,-0.707107,0.926293,0.000000,0.098707,0.000000
-0.707107,0.000000,0.707107,0.000000,1.000000,0.000000,-0.707107,0.000000,-0.707107,0.932624,0.000000,0.092376,0.000000
-0.707107,0.000000,0.707107,0.000000,1.000000,0.000000,-0.707107,0.000000,-0.707107,0.938802,0.000000,0.086198,0.000000
-0.707107,0.000000,0.707107,0.000000,1.000000,0.000000,-0.707107,0.000000,-0.707107,0.944801,0.000000,0.080199,0.000000
-0.707107,0.000000,0.707107,0.000000,1.000000,0.000000,-0.707107,0.000000,-0.707107,0.950599,0.000000,0.074401,0.000000
-0.707107,0.000000,0.707107,0.000000,1.000000,0.000000,-0.707107,0.000000,-0.707107,0.956171,0.000000,0.068829,0.000000
-0.707107,0.000000,0.707107,0.000000,1.000000,0.000000,-0.707107,0.000000,-0.707107,0.961496,0.000000,0.063504,0.000000
-0.707107,0.000000,0.707107,0.000000,1.000000,0.000000,-0.707107,0.000000,-0.707107,0.966556,0.000000,0.058444,0.000000
-0.707107,0.000000,0.707107,0.000000,1.000000,0.000000,-0.707107,0.000000,-0.707107,0.971332,0.000000,0.053668,0.000000
-0.707107,0.000000,0.707107,0.000000,1.000000,0.000000,-0.707107,0.000000,-0.707107,0.975809,0.000000,0.049191,0.000000
-0.707107,0.000000,0.707107,0.000000,1.000000,0.000000,-0.707107,0.000000,-0.707107,0.979974,0.000000,0.045026,0.000000
-0.707107,0.000000,0.707107,0.000000,1.000000,0.000000,-0.707107,0.000000,-0.707107,0.983817,0.000000,0.041183,0.000000
-0.707107,0.000000,0.707107,0.000000,1.000000,0.000000,-0.707107,0.000000,-0.707107,0.987330,0.000000,0.037670,0.000000
-0.707107,0.000000,0.707107,0.000000,1.000000,0.000000,-0.707107,0.000000,-0.707107,0.990507,0.000000,0.034493,0.000000
-0.707107,0.000000,0.707107,0.000000,1.000000,0.000000,-0.707107,0.000000,-0.707107,0.993347,0.000000,0.031653,0.000000
-0.707107,0.000000,0.707107,0.000000,1.000000,0.000000,-0.707107,0.000000,-0.707107,0.995851,0.000000,0.029149,0.000000
-0.707107,0.000000,0.707107,0.000000,1.000000,0.000000,-0.707107,0.000000,-0.707107,0.998024,0.000000,0.026976,0.000000
-0.707107,0.000000,0.707107,0.000000,1.000000,0.000000,-0.707107,0.000000,-0.707107,0.999874,0.000000,0.025126,0.000000
-0.707107,0.000000,0.707107,0.000000,1.000000,0.000000,-0.707107,0.000000,-0.707107,1.001413,0.000000,0.023587,0.000000
-0.707107,0.000000,0.707107,0.000000,1.000000,0.000000,-0.707107,0.000000,-0.707107,1.002658,0.000000,0.022342,0.000000
-0.707107,0.000000,0.707107,0.000000,1.000000,0.000000,-0.707107,0.000000,-0.707107,1.003629,0.000000,0.021371,0.000000
-0.707107,0.000000,0.707107,0.000000,1.000000,0.000000,-0.707107,0.000000,-0.707107,1.004350,0.000000,0.020650,0.000000
-0.707107,0.000000,0.707107,0.000000,1.000000,0.000000,-0.707107,0.000000,-0.707107,1.004851,0.000000,0.020149,0.000000
-0.707107,0.000000,0.707107,0.000000,1.000000,0.000000,-0.707107,0.000000,-0.707107,1.005166,0.000000,0.019834,0.000000
-0.707107,0.000000,0.707107,0.000000,1.000000,0.000000,-0.707107,0.000000,-0.707107,1.005333,0.000000,0.019667,0.000000
-0.707107,0.000000,0.707107,0.000000,1.000000,0.000000,-0.707107,0.000000,-0.707107,1.005396,0.000000,0.019604,0.000000
-0.707107,0.000000,0.707107,0.000000,1.000000,0.000000,-0.707107,0.000000,-0.707107,1.005406,0.000000,0.019594,1.000000
-0.707107,0.000000,0.707107,0.000000,1.000000,0.000000,-0.707107,0.000000,-0.707107,1.005406,0.000000,0.019594,1.000000
-0.707107,0.000000,0.707107,0.000000,1.000000,0.000000,-0.707107,0.000000,-0.707107,1.005406,0.000000,0.019594,1.000000
-0.707107,0.000000,0.707107,0.000000,1.000000,0.000000,-0.707107,0.000000,-0.707107,1.005406,0.000000,0.019594,1.000000
-0.707107,0.000000,0.707107,0.000000,1.000000,0.000000,-0.707107,0.000000,-0.707107,1.005406,0.000000,0.019594,1.000000
-0.707107,0.000000,0.707107,0.000000,1.000000,0.000000,-0.707107,0.000000,-0.707107,1.005406,0.000000,0.019594,1.000000
-0.707107,0.000000,0.707107,0.000000,1.000000,0.000000,-0.707107,0.000000,-0.707107,1.005406,0.000000,0.019594,1.000000
-0.707107,0.000000,0.707107,0.000000,1.000000,0.000000,-0.707107,0.000000,-0.707107,1.005406,0.000000,0.019594,1.000000
-0.707107,0.000000,0.707107,0.000000,1.000000,0.000000,-0.707107,0.000000,-0.707107,1.005406,0.000000,0.019594,1.000000
-0.707107,0.000000,0.707107,0.000000,1.000000,0.000000,-0.707107,0.000000,-0.707107,1.005406,0.000000,0.019594,1.000000
-0.707107,0.000000,0.707107,0.000000,1.000000,0.000000,-0.707107,0.000000,-0.707107,1.005406,0.000000,0.019594,1.000000
-0.707107,0.000000,0.707107,0.000000,1.000000,0.000000,-0.707107,0.000000,-0.707107,1.005406,0.000000,0.019594,1.000000
-0.707107,0.000000,0.707107,0.000000,1.000000,0.000000,-0.707107,0.000000,-0.707107,1.005406,0.000000,0.019594,1.000000
-0.707107,0.000000,0.707107,0.000000,1.000000,0.000000,-0.707107,0.000000,-0.707107,1.005406,0.000000,0.019594,1.000000
-0.707107,0.000000,0.707107,0.000000,1.000000,0.000000,-0.707107,0.000000,-0.707107,1.005406,0.000000,0.019594,1.000000
-0.707107,0.000000,0.707107,0.000000,1.000000,0.000000,-0.707107,0.000000,-0.707107,1.005406,0.000000,0.019594,1.000000
-0.707107,0.000000,0.707107,0.000000,1.000000,0.000000,-0.707107,0.000000,-0.707107,1.005406,0.000000,0.019594,1.000000
-0.707107,0.000000,0.707107,0.000000,1.000000,0.000000,-0.707107,0.000000,-0.707107,1.005406,0.000000,0.019594,1.000000
-0.707107,0.000000,0.707107,0.000000,1.000000,0.000000,-0.707107,0.000000,-0.707107,1.005406,0.000000,0.019594,1.000000
-0.707107,0.000000,0.707107,0.000000,1.000000,0.000000,-0.707107,0.000000,-0.707107,1.005406,0.000000,0.019594,1.000000
-0.707107,0.000000,0.707107,0.000000,1.000000,0.000000,-0.707107,0.000000,-0.707107,1.005406,0.000000,0.019594,1.000000
-0.707107,0.000000,0.707107,0.000000,1.000000,0.000000,-0.707107,0.000000,-0.707107,1.005406,0.000000,0.019594,1.000000
-0.707107,0.000000,0.707107,0.000000,1.000000,0.000000,-0.707107,0.000000,-0.707107,1.005406,0.000000,0.019594,1.000000
-0.707107,0.000000,0.707107,0.000000,1.000000,0.000000,-0.707107,0.000000,-0.707107,1.005406,0.000000,0.019594,1.000000
-0.707107,0.000000,0.707107,0.000000,1.000000,0.000000,-0.707107,0.000000,-0.707107,1.005406,0.000000,0.019594,1.000000
-0.707107,0.000000,0.707107,0.000000,1.000000,0.000000,-0.707107,0.000000,-0.707107,1.005406,0.000000,0.019594,1.000000
-0.707107,0.000000,0.707107,0.000000,1.000000,0.000000,-0.707107,0.000000,-0.707107,1.005406,0.000000,0.019594,1.000000
-0.707107,0.000000,0.707107,0.000000,1.000000,0.000000,-0.707107,0.000000,-0.707107,1.005406,0.000000,0.019594,1.000000
-0.707107,0.000000,0.707107,0.000000,1.000000,0.000000,-0.707107,0.000000,-0.707107,1.005406,0.000000,0.019594,1.000000
-0.707107,0.000000,0.707107,0.000000,1.000000,0.000000,-0.707107,0.000000,-0.707107,1.005406,0.000000,0.019594,1.000000
-0.707107,0.000000,0.707107,0.000000,1.000000,0.000000,-0.707107,0.000000,-0.707107,1.005406,0.000000,0.019594,1.000000
-0.707107,0.000000,0.707107,0.000000,1.000000,0.000000,-0.707107,0.000000,-0.707107,1.005406,0.000000,0.019594,1.000000
-0.707107,0.000000,0.707107,0.000000,1.000000,0.000000,-0.707107,0.000000,-0.707107,1.005406,0.000000,0.019594,1.000000
-0.707107,0.000000,0.707107,0.000000,1.000000,0.000000,-0.707107,0.000000,-0.707107,1.005406,0.000000,0.019594,1.000000
-0.707107,0.000000,0.707107,0.000000,1.000000,0.000000,-0.707107,0.000000,-0.707107,1.005406,0.000000,0.019594,1.000000
-0.707107,0.000000,0.707107,0.000000,1.000000,0.000000,-0.707107,0.000000,-0.707107,1.005406,0.000000,0.019594,1.000000
-0.707107,0.000000,0.707107,0.000000,1.000000,0.000000,-0.707107,0.000000,-0.707107,1.005406,0.000000,0.019594,1.000000
-0.707107,0.000000,0.707107,0.000000,1.000000,0.000000,-0.707107,0.000000,-0.707107,1.005406,0.000000,0.019594,1.000000
-0.707107,0.000000,0.707107,0.000000,1.000000,0.000000,-0.707107,0.000000,-0.707107,1.005406,0.000000,0.019594,1.000000
-0.707107,0.000000,0.707107,0.000000,1.000000,0.000000,-0.707107,0.000000,-0.707107,1.005406,0.000000,0.019594,1.000000
-0.707107,0.000000,0.707107,0.000000,1.000000,0.000000,-0.707107,0.000000,-0.707107,1.005406,0.000000,0.019594,1.000000
-0.707107,0.000000,0.707107,0.000000,1.000000,0.000000,-0.707107,0.000000,-0.707107,1.005406,0.000000,0.019594,1.000000
-0.707107,0.000000,0.707107,0.000000,1.000000,0.000000,-0.707107,0.000000,-0.707107,1.005406,0.000000,0.019594,1.000000
-0.707107,0.000000,0.707107,0.000000,1.000000,0.000000,-0.707107,0.000000,-0.707107,1.005406,0.000000,0.019594,1.000000
-0.707107,0.000000,0.707107,0.000000,1.000000,0.000000,-0.707107,0.000000,-0.707107,1.005406,0.000000,0.019594,1.000000
-0.707107,0.000000,0.707107,0.000000,1.000000,0.000000,-0.707107,0.000000,-0.707107,1.005406,0.000000,0.019594,1.000000
-0.707107,0.000000,0.707107,0.000000,1.000000,0.000000,-0.707107,0.000000,-0.707107,1.005406,0.000000,0.019594,1.000000
-0.707107,0.000000,0.707107,0.000000,1.000000,0.000000,-0.707107,0.000000,-0.707107,1.005406,0.000000,0.019594,1.000000
-0.707107,0.000000,0.707107,0.000000,1.000000,0.000000,-0.707107,0.000000,-0.707107,1.005406,0.000000,0.019594,1.000000
-0.707107,0.000000,0.707107,0.000000,1.000000,0.000000,-0.707107,0.000000,-0.707107,1.005406,0.000000,0.019594,1.000000
-0.707107,0.000000,0.707107,0.000000,1.000000,0.000000,-0.707107,0.000000,-0.707107,1.005406,0.000000,0.019594,1.000000
-0.707107,0.000000,0.707107,0.000000,1.000000,0.000000,-0.707107,0.000000,-0.707107,1.005406,0.000000,0.019594,1.000000
-0.707107,0.000000,0.707107,0.000000,1.000000,0.000000,-0.707107,0.000000,-0.707107,1.005406,0.000000,0.019594,1.000000
-0.707107,0.000000,0.707107,0.000000,1.000000,0.000000,-0.707107,0.000000,-0.707107,1.005406,0.000000,0.019594,1.000000
-0.707107,0.000000,0.707107,0.000000,1.000000,0.000000,-0.707107,0.000000,-0.707107,1.005406,0.000000,0.019594,1.000000
-0.707107,0.000000,0.707107,0.000000,1.000000,0.000000,-0.707107,0.000000,-0.707107,1.005406,0.000000,0.019594,1.000000
-0.707107,0.000000,0.707107,0.000000,1.000000,0.000000,-0.707107,0.000000,-0.707107,1.005406,0.000000,0.019594,1.000000
-0.707107,0.000000,0.707107,0.000000,1.000000,0.000000,-0.707107,0.000000,-0.707107,1.005406,0.000000,0.019594,1.000000
-0.707107,0.000000,0.707107,0.000000,1.000000,0.000000,-0.707107,0.000000,-0.707107,1.005406,0.000000,0.019594,1.000000
-0.707107,0.000000,0.707107,0.000000,1.000000,0.000000,-0.707107,0.000000,-0.707107,1.005406,0.000000,0.019594,1.000000
-0.707107,0.000000,0.707107,0.000000,1.000000,0.000000,-0.707107,0.000000,-0.707107,1.005406,0.000000,0.019594,1.000000
-0.707107,0.000000,0.707107,0.000000,1.000000,0.000000,-0.707107,0.000000,-0.707107,1.005406,0.000000,0.019594,1.000000
-0.707107,0.000000,0.707107,0.000000,1.000000,0.000000,-0.707107,0.000000,-0.707107,1.005406,0.000000,0.019594,1.000000
-0.707107,0.000000,0.707107,0.000000,1.000000,0.000000,-0.707107,0.000000,-0.707107,1.005406,0.000000,0.019594,1.000000
-0.707107,0.000000,0.707107,0.000000,1.000000,0.000000,-0.707107,0.000000,-0.707107,1.005406,0.000000,0.019594,1.000000
-0.707107,0.000000,0.707107,0.000000,1.000000,0.000000,-0.707107,0.000000,-0.707107,1.005396,0.000000,0.019604,1.000000
-0.707107,0.000000,0.707107,0.000000,1.000000,0.000000,-0.707107,0.000000,-0.707107,1.005333,0.000000,0.019667,1.000000
-0.707107,0.000000,0.707107,0.000000,1.000000,0.000000,-0.707107,0.000000,-0.707107,1.005166,0.000000,0.019834,1.000000
-0.707107,0.000000,0.707107,0.000000,1.000000,0.000000,-0.707107,0.000000,-0.707107,1.004851,0.000000,0.020149,1.000000
-0.707107,0.000000,0.707107,0.000000,1.000000,0.000000,-0.707107,0.000000,-0.707107,1.004350,0.000000,0.020650,1.000000
-0.707107,0.000000,0.707107,0.000000,1.000000,0.000000,-0.707107,0.000000,-0.707107,1.003629,0.000000,0.021371,1.000000
-0.707107,0.000000,0.707107,0.000000,1.000000,0.000000,-0.707107,0.000000,-0.707107,1.002658,0.000000,0.022342,1.000000
-0.707107,0.000000,0.707107,0.000000,1.000000,0.000000,-0.707107,0.000000,-0.707107,1.001413,0.000000,0.023587,1.000000
-0.707107,0.000000,0.707107,0.000000,1.000000,0.000000,-0.707107,0.000000,-0.707107,0.999874,0.000000,0.025126,1.000000
-0.707107,0.000000,0.707107,0.000000,1.000000,0.000000,-0.707107,0.000000,-0.707107,0.998024,0.000000,0.026976,1.000000
-0.707107,0.000000,0.707107,0.000000,1.000000,0.000000,-0.707107,0.000000,-0.707107,0.995851,0.000000,0.029149,1.000000
-0.707107,0.000000,0.707107,0.000000,1.000000,0.000000,-0.707107,0.000000,-0.707107,0.993347,0.000000,0.031653,1.000000
-0.707107,0.000000,0.707107,0.000000,1.000000,0.000000,-0.707107,0.000000,-0.707107,0.990507,0.000000,0.034493,1.000000
-0.707107,0.000000,0.707107,0.000000,1.000000,0.000000,-0.707107,0.000000,-0.707107,0.987330,0.000000,0.037670,1.000000
-0.707107,0.000000,0.707107,0.000000,1.000000,0.000000,-0.707107,0.000000,-0.707107,0.983817,0.000000,0.041183,1.000000
-0.707107,0.000000,0.707107,0.000000,1.000000,0.000000,-0.707107,0.000000,-0.707107,0.979974,0.000000,0.045026,1.000000
-0.707107,0.000000,0.707107,0.000000,1.000000,0.000000,-0.707107,0.000000,-0.707107,0.975809,0.000000,0.049191,1.000000
-0.707107,0.000000,0.707107,0.000000,1.000000,0.000000,-0.707107,0.000000,-0.707107,0.971332,0.000000,0.053668,1.000000
-0.707107,0.000000,0.707107,0.000000,1.000000,0.000000,-0.707107,0.000000,-0.707107,0.966556,0.000000,0.058444,1.000000
-0.707107,0.000000,0.707107,0.000000,1.000000,0.000000,-0.707107,0.000000,-0.707107,0.961496,0.000000,0.063504,1.000000
-0.707107,0.000000,0.707107,0.000000,1.000000,0.000000,-0.707107,0.000000,-0.707107,0.956171,0.000000,0.068829,1.000000
-0.707107,0.000000,0.707107,0.000000,1.000000,0.000000,-0.707107,0.000000,-0.707107,0.950599,0.000000,0.074401,1.000000
-0.707107,0.000000,0.707107,0.000000,1.000000,0.000000,-0.707107,0.000000,-0.707107,0.944801,0.000000,0.080199,1.000000
-0.707107,0.000000,0.707107,0.000000,1.000000,0.000000,-0.707107,0.000000,-0.707107,0.938802,0.000000,0.086198,1.000000
-0.707107,0.000000,0.707107,0.000000,1.000000,0.000000,-0.707107,0.000000,-0.707107,0.932624,0.000000,0.092376,1.000000
-0.707107,0.000000,0.707107,0.000000,1.000000,0.000000,-0.707107,0.000000,-0.707107,0.926293,0.000000,0.098707,1.000000
-0.707107,0.000000,0.707107,0.000000,1.000000,0.000000,-0.707107,0.000000,-0.707107,0.919835,0.000000,0.105165,1.000000
-0.707107,0.000000,0.707107,0.000000,1.000000,0.000000,-0.707107,0.000000,-0.707107,0.913279,0.000000,0.111721,1.000000
-0.707107,0.000000,0.707107,0.000000,1.000000,0.000000,-0.707107,0.000000,-0.707107,0.906651,0.000000,0.118349,1.000000
-0.707107,0.000000,0.707107,0.000000,1.000000,0.000000,-0.707107,0.000000,-0.707107,0.899979,0.000000,0.125021,1.000000
-0.707107,0.000000,0.707107,0.000000,1.000000,0.000000,-0.707107,0.000000,-0.707107,0.893294,0.000000,0.131706,1.000000
-0.707107,0.000000,0.707107,0.000000,1.000000,0.000000,-0.707107,0.000000,-0.707107,0.886623,0.000000,0.138377,1.000000
-0.707107,0.000000,0.707107,0.000000,1.000000,0.000000,-0.707107,0.000000,-0.707107,0.879995,0.000000,0.145005,1.000000
-0.707107,0.000000,0.707107,0.000000,1.000000,0.000000,-0.707107,0.000000,-0.707107,0.873438,0.000000,0.151562,1.000000
-0.707107,0.000000,0.707107,0.000000,1.000000,0.000000,-0.707107,0.000000,-0.707107,0.866981,0.000000,0.158019,1.000000
-0.707107,0.000000,0.707107,0.000000,1.000000,0.000000,-0.707107,0.000000,-0.707107,0.860650,0.000000,0.164350,1.000000
-0.707107,0.000000,0.707107,0.000000,1.000000,0.000000,-0.707107,0.000000,-0.707107,0.854472,0.000000,0.170528,1.000000
-0.707107,0.000000,0.707107,0.000000,1.000000,0.000000,-0.707107,0.000000,-0.707107,0.848472,0.000000,0.176528,1.000000
-0.707107,0.000000,0.707107,0.000000,1.000000,0.000000,-0.707107,0.000000,-0.707107,0.842675,0.000000,0.182325,1.000000
-0.707107,0.000000,0.707107,0.000000,1.000000,0.000000,-0.707107,0.000000,-0.707107,0.837103,0.000000,0.187897,1.000000
-0.707107,0.000000,0.707107,0.000000,1.000000,0.000000,-0.707107,0.000000,-0.707107,0.831777,0.000000,0.193223,1.000000
-0.707107,0.000000,0.707107,0.000000,1.000000,0.000000,-0.707107,0.000000,-0.707107,0.826718,0.000000,0.198282,1.000000
-0.707107,0.000000,0.707107,0.000000,1.000000,0.000000,-0.707107,0.000000,-0.707107,0.821942,0.000000,0.203058,1.000000
-0.707107,0.000000,0.707107,0.000000,1.000000,0.000000,-0.707107,0.000000,-0.707107,0.817465,0.000000,0.207535,1.000000
-0.707107,0.000000,0.707107,0.000000,1.000000,0.000000,-0.707107,0.000000,-0.707107,0.813299,0.000000,0.211701,1.000000
-0.707107,0.000000,0.707107,0.000000,1.000000,0.000000,-0.707107,0.000000,-0.707107,0.809456,0.000000,0.215544,1.000000
-0.707107,0.000000,0.707107,0.000000,1.000000,0.000000,-0.707107,0.000000,-0.707107,0.805944,0.000000,0.219056,1.000000
-0.707107,0.000000,0.707107,0.000000,1.000000,0.000000,-0.707107,0.000000,-0.707107,0.802767,0.000000,0.222233,1.000000
-0.707107,0.000000,0.707107,0.000000,1.000000,0.000000,-0.707107,0.000000,-0.707107,0.799927,0.000000,0.225073,1.000000
-0.707107,0.000000,0.707107,0.000000,1.000000,0.000000,-0.707107,0.000000,-0.707107,0.797423,0.000000,0.227577,1.000000
-0.707107,0.000000,0.707107,0.000000,1.000000,0.000000,-0.707107,0.000000,-0.707107,0.795250,0.000000,0.229750,1.000000
-0.707107,0.000000,0.707107,0.000000,1.000000,0.000000,-0.707107,0.000000,-0.707107,0.793400,0.000000,0.231600,1.000000
-0.707107,0.000000,0.707107,0.000000,1.000000,0.000000,-0.707107,0.000000,-0.707107,0.791860,0.000000,0.233140,1.000000
-0.707107,0.000000,0.707107,0.000000,1.000000,0.000000,-0.707107,0.000000,-0.707107,0.790615,0.000000,0.234385,1.000000
-0.707107,0.000000,0.707107,0.000000,1.000000,0.000000,-0.707107,0.000000,-0.707107,0.789645,0.000000,0.235355,1.000000
-0.707107,0.000000,0.707107,0.000000,1.000000,0.000000,-0.707107,0.000000,-0.707107,0.788923,0.000000,0.236077,1.000000
-0.707107,0.000000,0.707107,0.000000,1.000000,0.000000,-0.707107,0.000000,-0.707107,0.788423,0.000000,0.236577,1.000000
-0.707107,0.000000,0.707107,0.000000,1.000000,0.000000,-0.707107,0.000000,-0.707107,0.788108,0.000000,0.236892,1.000000
-0.707107,0.000000,0.707107,0.000000,1.000000,0.000000,-0.707107,0.000000,-0.707107,0.787941,0.000000,0.237059,1.000000
-0.707107,0.000000,0.707107,0.000000,1.000000,0.000000,-0.707107,0.000000,-0.707107,0.787877,0.000000,0.237123,1.000000
-0.707107,0.000000,0.707107,0.000000,1.000000,0.000000,-0.707107,0.000000,-0.707107,0.787868,0.000000,0.237132,1.000000
-0.707107,0.000000,0.707107,0.000000,1.000000,0.000000,-0.707107,0.000000,-0.707107,0.787868,0.000000,0.237132,1.000000
-0.707107,0.000001,0.707107,0.000001,1.000000,-0.000001,-0.707107,-0.000000,-0.707107,0.787867,-0.000001,0.237132,1.000000
-0.707107,0.000011,0.707107,0.000008,1.000000,-0.000008,-0.707107,0.000000,-0.707107,0.787862,-0.000006,0.237132,1.000000
-0.707107,0.000038,0.707107,0.000027,1.000000,-0.000027,-0.707107,-0.000000,-0.707107,0.787849,-0.000019,0.237132,1.000000
-0.707107,0.000089,0.707107,0.000063,1.000000,-0.000063,-0.707107,0.000000,-0.707107,0.787823,-0.000045,0.237132,1.000000
-0.707107,0.000173,0.707107,0.000123,1.000000,-0.000123,-0.707107,0.000000,-0.707107,0.787781,-0.000087,0.237132,1.000000
-0.707107,0.000298,0.707107,0.000210,1.000000,-0.000210,-0.707107,-0.000000,-0.707107,0.787719,-0.000149,0.237132,1.000000
-0.707107,0.000469,0.707107,0.000332,1.000000,-0.000332,-0.707107,-0.000000,-0.707107,0.787633,-0.000235,0.237132,1.000000
-0.707107,0.000696,0.707107,0.000492,1.000000,-0.000492,-0.707107,-0.000000,-0.707107,0.787519,-0.000349,0.237132,1.000000
-0.707106,0.000984,0.707106,0.000696,1.000000,-0.000696,-0.707107,-0.000000,-0.707107,0.787374,-0.000494,0.237132,1.000000
-0.707106,0.001340,0.707106,0.000948,0.999999,-0.000948,-0.707107,-0.000000,-0.707107,0.787196,-0.000672,0.237132,1.000000
-0.707106,0.001772,0.707106,0.001253,0.999998,-0.001253,-0.707107,-0.000000,-0.707107,0.786979,-0.000889,0.237132,1.000000
-0.707105,0.002284,0.707105,0.001615,0.999997,-0.001615,-0.707107,-0.000000,-0.707107,0.786722,-0.001146,0.237132,1.000000
-0.707104,0.002884,0.707104,0.002039,0.999996,-0.002039,-0.707107,-0.000000,-0.707107,0.786422,-0.001446,0.237132,1.000000
-0.707102,0.003576,0.707102,0.002529,0.999994,-0.002529,-0.707107,-0.000000,-0.707107,0.786074,-0.001794,0.237132,1.000000
-0.707100,0.004368,0.707100,0.003088,0.999990,-0.003088,-0.707107,-0.000000,-0.707107,0.785677,-0.002191,0.237132,1.000000
-0.707097,0.005263,0.707097,0.003722,0.999986,-0.003722,-0.707107,-0.000000,-0.707107,0.785228,-0.002640,0.237132,1.000000
-0.707093,0.006268,0.707093,0.004432,0.999980,-0.004432,-0.707107,-0.000000,-0.707107,0.784724,-0.003144,0.237132,1.000000
-0.707087,0.007388,0.707087,0.005224,0.999973,-0.005224,-0.707107,-0.000000,-0.707107,0.784163,-0.003705,0.237132,1.000000
-0.707080,0.008626,0.707080,0.006100,0.999963,-0.006100,-0.707107,-0.000000,-0.707107,0.783541,-0.004327,0.237132,1.000000
-0.707072,0.009989,0.707072,0.007063,0.999950,-0.007063,-0.707107,-0.000000,-0.707107,0.782858,-0.005010,0.237132,1.000000
-0.707060,0.011480,0.707060,0.008118,0.999934,-0.008118,-0.707107,-0.000000,-0.707107,0.782110,-0.005758,0.237132,1.000000
-0.707046,0.013105,0.707046,0.009266,0.999914,-0.009266,-0.707107,-0.000000,-0.707107,0.781295,-0.006573,0.237132,1.000000
-0.707029,0.014865,0.707029,0.010511,0.999890,-0.010511,-0.707107,-0.000000,-0.707107,0.780412,-0.007456,0.237132,1.000000
-0.707007,0.016767,0.707007,0.011856,0.999859,-0.011856,-0.707107,-0.000000,-0.707107,0.779458,-0.008410,0.237132,1.000000
-0.706982,0.018813,0.706982,0.013303,0.999823,-0.013303,-0.707107,-0.000000,-0.707107,0.778431,-0.009437,0.237132,1.000000
-0.706951,0.021007,0.706951,0.014854,0.999779,-0.014854,-0.707107,-0.000000,-0.707107,0.777331,-0.010537,0.237132,1.000000
-0.706914,0.023352,0.706914,0.016512,0.999727,-0.016512,-0.707107,-0.000000,-0.707107,0.776154,-0.011714,0.237132,1.000000
-0.706870,0.025852,0.706870,0.018280,0.999666,-0.018280,-0.707107,-0.000000,-0.707107,0.774900,-0.012968,0.237132,1.000000
-0.706819,0.028509,0.706819,0.020159,0.999594,-0.020159,-0.707107,-0.000000,-0.707107,0.773567,-0.014301,0.237132,1.000000
-0.706760,0.031326,0.706760,0.022151,0.999509,-0.022151,-0.707107,-0.000000,-0.707107,0.772153,-0.015715,0.237132,1.000000
-0.706691,0.034306,0.706691,0.024258,0.999411,-0.024258,-0.707107,-0.000000,-0.707107,0.770658,-0.017210,0.237132,1.000000
-0.706611,0.037451,0.706611,0.026482,0.999298,-0.026482,-0.707107,-0.000000,-0.707107,0.769079,-0.018789,0.237132,1.000000
-0.706519,0.040763,0.706519,0.028824,0.999169,-0.028824,-0.707107,-0.000000,-0.707107,0.767417,-0.020451,0.237132,1.000000
-0.706414,0.044245,0.706414,0.031286,0.999021,-0.031286,-0.707107,-0.000000,-0.707107,0.765669,-0.022199,0.237132,1.000000
-0.706295,0.047898,0.706295,0.033869,0.998852,-0.033869,-0.707107,-0.000000,-0.707107,0.763834,-0.024033,0.237132,1.000000
-0.706160,0.051724,0.706160,0.036574,0.998661,-0.036574,-0.707107,0.000000,-0.707107,0.761913,-0.025955,0.237132,1.000000
-0.706008,0.055725,0.706008,0.039403,0.998446,-0.039403,-0.707107,-0.000000,-0.707107,0.759904,-0.027964,0.237132,1.000000
-0.705837,0.059901,0.705837,0.042357,0.998204,-0.042357,-0.707107,-0.000000,-0.707107,0.757805,-0.030063,0.237132,1.000000
-0.705646,0.064255,0.705646,0.045435,0.997934,-0.045435,-0.707107,-0.000000,-0.707107,0.755617,-0.032251,0.237132,1.000000
-0.705432,0.068786,0.705432,0.048639,0.997631,-0.048639,-0.707107,0.000000,-0.707107,0.753339,-0.034528,0.237132,1.000000
-0.705194,0.073496,0.705194,0.051970,0.997295,-0.051970,-0.707107,0.000000,-0.707107,0.750971,-0.036897,0.237132,1.000000
-0.704931,0.078386,0.704931,0.055427,0.996923,-0.055427,-0.707107,0.000000,-0.707107,0.748511,-0.039357,0.237132,1.000000
-0.704640,0.083455,0.704640,0.059012,0.996512,-0.059012,-0.707107,-0.000000,-0.707107,0.745960,-0.041908,0.237132,1.000000
-0.704319,0.088705,0.704319,0.062724,0.996058,-0.062724,-0.707107,0.000000,-0.707107,0.743318,-0.044550,0.237132,1.000000
-0.703967,0.094134,0.703967,0.066563,0.995559,-0.066563,-0.707107,-0.000000,-0.707107,0.740583,-0.047285,0.237132,1.000000
-0.703581,0.099744,0.703581,0.070530,0.995013,-0.070530,-0.707107,0.000000,-0.707107,0.737756,-0.050112,0.237132,1.000000
-0.703158,0.105534,0.703158,0.074624,0.994416,-0.074624,-0.707107,-0.000000,-0.707107,0.734836,-0.053031,0.237132,1.000000
-0.702697,0.111502,0.702697,0.078844,0.993764,-0.078844,-0.707107,-0.000000,-0.707107,0.731825,-0.056043,0.237132,1.000000
-0.702196,0.117650,0.702196,0.083191,0.993055,-0.083191,-0.707107,-0.000000,-0.707107,0.728721,-0.059147,0.237132,1.000000
-0.701652,0.123975,0.701652,0.087663,0.992285,-0.087663,-0.707107,-0.000000,-0.707107,0.725525,-0.062343,0.237132,1.000000
-0.701062,0.130477,0.701062,0.092261,0.991451,-0.092261,-0.707107,-0.000000,-0.707107,0.722237,-0.065631,0.237132,1.000000
-0.700424,0.137154,0.700424,0.096983,0.990550,-0.096983,-0.707107,-0.000000,-0.707107,0.718858,-0.069010,0.237132,1.000000
-0.699736,0.144006,0.699736,0.101828,0.989577,-0.101828,-0.707107,-0.000000,-0.707107,0.715387,-0.072481,0.237132,1.000000
-0.698996,0.151030,0.698996,0.106794,0.988529,-0.106794,-0.707107,-0.000000,-0.707107,0.711824,-0.076044,0.237132,1.000000
-0.698199,0.158225,0.698199,0.111882,0.987403,-0.111882,-0.707107,-0.000000,-0.707107,0.708172,-0.079696,0.237132,1.000000
-0.697345,0.165589,0.697345,0.117089,0.986195,-0.117089,-0.707107,-0.000000,-0.707107,0.704429,-0.083439,0.237132,1.000000
-0.696430,0.173120,0.696430,0.122415,0.984901,-0.122415,-0.707107,0.000000,-0.707107,0.700596,-0.087272,0.237132,1.000000
-0.695452,0.180816,0.695452,0.127856,0.983517,-0.127856,-0.707107,-0.000000,-0.707107,0.696674,-0.091194,0.237132,1.000000
-0.694407,0.188673,0.694407,0.133412,0.982040,-0.133412,-0.707107,-0.000000,-0.707107,0.692664,-0.095204,0.237132,1.000000
-0.693294,0.196690,0.693294,0.139081,0.980466,-0.139081,-0.707107,-0.000000,-0.707107,0.688566,-0.099302,0.237132,1.000000
-0.692110,0.204863,0.692110,0.144860,0.978791,-0.144860,-0.707107,-0.000000,-0.707107,0.684382,-0.103486,0.237132,1.000000
-0.690851,0.213190,0.690851,0.150748,0.977011,-0.150748,-0.707107,0.000000,-0.707107,0.680111,-0.107757,0.237132,1.000000
-0.689516,0.221667,0.689516,0.156742,0.975123,-0.156742,-0.707107,-0.000000,-0.707107,0.675755,-0.112113,0.237132,1.000000
-0.688101,0.230290,0.688101,0.162840,0.973122,-0.162840,-0.707107,-0.000000,-0.707107,0.671315,-0.116553,0.237132,1.000000
-0.686605,0.239057,0.686605,0.169039,0.971005,-0.169039,-0.707107,-0.000000,-0.707107,0.666791,-0.121077,0.237132,1.000000
-0.685023,0.247964,0.685023,0.175337,0.968769,-0.175337,-0.707107,-0.000000,-0.707107,0.662185,-0.125683,0.237132,1.000000
-0.683355,0.257006,0.683355,0.181731,0.966410,-0.181731,-0.707107,-0.000000,-0.707107,0.657498,-0.130370,0.237132,1.000000
-0.681597,0.266180,0.681597,0.188217,0.963923,-0.188217,-0.707107,-0.000000,-0.707107,0.652731,-0.135137,0.237132,1.000000
-0.679746,0.275480,0.679746,0.194794,0.961307,-0.194794,-0.707107,-0.000000,-0.707107,0.647884,-0.139984,0.237132,1.000000
-0.677801,0.284904,0.677801,0.201458,0.958556,-0.201458,-0.707107,-0.000000,-0.707107,0.642960,-0.144908,0.237132,1.000000
-0.675759,0.294446,0.675759,0.208205,0.955668,-0.208205,-0.707107,0.000000,-0.707107,0.637960,-0.149908,0.237132,1.000000
-0.673618,0.304102,0.673618,0.215032,0.952640,-0.215032,-0.707107,-0.000000,-0.707107,0.632884,-0.154984,0.237132,1.000000
-0.671375,0.313866,0.671375,0.221937,0.949467,-0.221937,-0.707107,-0.000000,-0.707107,0.627735,-0.160133,0.237132,1.000000
-0.669028,0.323734,0.669028,0.228914,0.946148,-0.228914,-0.707107,-0.000000,-0.707107,0.622513,-0.165355,0.237132,1.000000
-0.666575,0.333700,0.666575,0.235962,0.942679,-0.235962,-0.707107,-0.000000,-0.707107,0.617220,-0.170648,0.237132,1.000000
-0.664014,0.343760,0.664014,0.243075,0.939058,-0.243075,-0.707107,0.000000,-0.707107,0.611857,-0.176011,0.237132,1.000000
-0.661343,0.353907,0.661343,0.250250,0.935281,-0.250250,-0.707107,-0.000000,-0.707107,0.606427,-0.181441,0.237132,1.000000
-0.658561,0.364136,0.658561,0.257483,0.931346,-0.257483,-0.707107,-0.000000,-0.707107,0.600929,-0.186938,0.237132,1.000000
-0.655665,0.374442,0.655665,0.264770,0.927250,-0.264770,-0.707107,0.000000,-0.707107,0.595367,-0.192501,0.237132,1.000000
-0.652654,0.384818,0.652654,0.272107,0.922993,-0.272107,-0.707107,0.000000,-0.707107,0.589742,-0.198126,0.237132,1.000000
-0.649527,0.395259,0.649527,0.279490,0.918570,-0.279490,-0.707107,-0.000000,-0.707107,0.584054,-0.203814,0.237132,1.000000
-0.646282,0.405758,0.646282,0.286914,0.913980,-0.286914,-0.707107,-0.000000,-0.707107,0.578307,-0.209561,0.237132,1.000000
-0.642917,0.416310,0.642917,0.294376,0.909223,-0.294376,-0.707107,-0.000000,-0.707107,0.572501,-0.215367,0.237132,1.000000
-0.639433,0.426909,0.639433,0.301870,0.904295,-0.301870,-0.707107,-0.000000,-0.707107,0.566639,-0.221229,0.237132,1.000000
-0.635827,0.437547,0.635827,0.309393,0.899195,-0.309393,-0.707107,-0.000000,-0.707107,0.560721,-0.227147,0.237132,1.000000
-0.632099,0.448219,0.632099,0.316939,0.893924,-0.316939,-0.707107,-0.000000,-0.707107,0.554751,-0.233117,0.237132,1.000000
-0.628249,0.458919,0.628249,0.324505,0.888478,-0.324505,-0.707107,-0.000000,-0.707107,0.548729,-0.239139,0.237132,1.000000
-0.624275,0.469639,0.624275,0.332085,0.882859,-0.332085,-0.707107,-0.000000,-0.707107,0.542658,-0.245210,0.237132,1.000000
-0.620178,0.480374,0.620178,0.339676,0.877064,-0.339676,-0.707107,-0.000000,-0.707107,0.536540,-0.251328,0.237132,1.000000
-0.615957,0.491116,0.615957,0.347272,0.871094,-0.347272,-0.707107,-0.000000,-0.707107,0.530375,-0.257493,0.237132,1.000000
-0.611611,0.501860,0.611611,0.354869,0.864949,-0.354869,-0.707107,-0.000000,-0.707107,0.524167,-0.263701,0.237132,1.000000
-0.607142,0.512598,0.607142,0.362462,0.858629,-0.362462,-0.707107,-0.000000,-0.707107,0.517918,-0.269950,0.237132,1.000000
-0.602549,0.523325,0.602549,0.370047,0.852133,-0.370047,-0.707107,-0.000000,-0.707107,0.511628,-0.276240,0.237132,1.000000
-0.597833,0.534033,0.597833,0.377618,0.845464,-0.377618,-0.707107,-0.000000,-0.707107,0.505300,-0.282568,0.237132,1.000000
-0.592994,0.544716,0.592994,0.385172,0.838621,-0.385172,-0.707107,0.000000,-0.707107,0.498937,-0.288931,0.237132,1.000000
-0.588034,0.555367,0.588034,0.392704,0.831605,-0.392704,-0.707107,0.000000,-0.707107,0.492540,-0.295328,0.237132,1.000000
-0.582952,0.565981,0.582952,0.400209,0.824418,-0.400209,-0.707107,0.000000,-0.707107,0.486111,-0.301757,0.237132,1.000000
-0.577750,0.576550,0.577750,0.407682,0.817062,-0.407682,-0.707107,-0.000000,-0.707107,0.479652,-0.308216,0.237132,1.000000
-0.572430,0.587068,0.572430,0.415120,0.809538,-0.415120,-0.707107,-0.000000,-0.707107,0.473165,-0.314702,0.237132,1.000000
-0.566992,0.597529,0.566992,0.422516,0.801848,-0.422516,-0.707107,-0.000000,-0.707107,0.466653,-0.321215,0.237132,1.000000
-0.561438,0.607926,0.561438,0.429868,0.793994,-0.429868,-0.707107,0.000000,-0.707107,0.460118,-0.327750,0.237132,1.000000
-0.555771,0.618254,0.555771,0.437171,0.785979,-0.437171,-0.707107,-0.000000,-0.707107,0.453561,-0.334307,0.237132,1.000000
-0.549991,0.628505,0.549991,0.444420,0.777805,-0.444420,-0.707107,-0.000000,-0.707107,0.446984,-0.340884,0.237132,1.000000
-0.544102,0.638676,0.544102,0.451612,0.769476,-0.451612,-0.707107,-0.000000,-0.707107,0.440391,-0.347477,0.237132,1.000000
-0.538104,0.648759,0.538104,0.458742,0.760994,-0.458742,-0.707107,0.000000,-0.707107,0.433782,-0.354086,0.237132,1.000000
-0.532001,0.658748,0.532001,0.465805,0.752364,-0.465805,-0.707107,-0.000000,-0.707107,0.427160,-0.360708,0.237132,1.000000
-0.525796,0.668639,0.525796,0.472799,0.743587,-0.472799,-0.707107,-0.000000,-0.707107,0.420528,-0.367340,0.237132,1.000000
-0.519490,0.678425,0.519490,0.479719,0.734669,-0.479719,-0.707107,-0.000000,-0.707107,0.413887,-0.373981,0.237132,1.000000
-0.513087,0.688102,0.513087,0.486562,0.725614,-0.486562,-0.707107,-0.000000,-0.707107,0.407240,-0.380628,0.237132,1.000000
-0.506589,0.697664,0.506589,0.493323,0.716425,-0.493323,-0.707107,-0.000000,-0.707107,0.400588,-0.387280,0.237132,1.000000
-0.500000,0.707107,0.500000,0.500000,0.707107,-0.500000,-0.707107,-0.000000,-0.707107,0.393934,-0.393934,0.237132,1.000000
-0.493323,0.716425,0.493323,0.506589,0.697664,-0.506589,-0.707107,-0.000000,-0.707107,0.387280,-0.400588,0.237132,1.000000
-0.486562,0.725614,0.486562,0.513087,0.688102,-0.513087,-0.707107,-0.000000,-0.707107,0.380628,-0.407240,0.237132,1.000000
-0.479719,0.734669,0.479719,0.519490,0.678425,-0.519490,-0.707107,-0.000000,-0.707107,0.373981,-0.413887,0.237132,1.000000
-0.472799,0.743587,0.472799,0.525796,0.668639,-0.525796,-0.707107,-0.000000,-0.707107,0.367340,-0.420528,0.237132,1.000000
-0.465805,0.752364,0.465805,0.532001,0.658748,-0.532001,-0.707107,0.000000,-0.707107,0.360708,-0.427160,0.237132,1.000000
-0.458742,0.760994,0.458742,0.538104,0.648759,-0.538104,-0.707107,-0.000000,-0.707107,0.354086,-0.433782,0.237132,1.000000
-0.451612,0.769476,0.451612,0.544102,0.638676,-0.544102,-0.707107,-0.000000,-0.707107,0.347477,-0.440391,0.237132,1.000000
-0.444420,0.777805,0.444420,0.549991,0.628505,-0.549991,-0.707107,0.000000,-0.707107,0.340884,-0.446984,0.237132,1.000000
-0.437171,0.785979,0.437171,0.555771,0.618254,-0.555771,-0.707107,-0.000000,-0.707107,0.334307,-0.453561,0.237132,1.000000
-0.429868,0.793994,0.429868,0.561438,0.607926,-0.561438,-0.707107,0.000000,-0.707107,0.327750,-0.460118,0.237132,1.000000
-0.422516,0.801848,0.422516,0.566992,0.597529,-0.566992,-0.707107,0.000000,-0.707107,0.321215,-0.466653,0.237132,1.000000
-0.415120,0.809538,0.415120,0.572430,0.587068,-0.572430,-0.707107,-0.000000,-0.707107,0.314702,-0.473165,0.237132,1.000000
-0.407682,0.817062,0.407682,0.577750,0.576550,-0.577750,-0.707107,-0.000000,-0.707107,0.308216,-0.479652,0.237132,1.000000
-0.400209,0.824418,0.400209,0.582952,0.565981,-0.582952,-0.707107,0.000000,-0.707107,0.301757,-0.486111,0.237132,1.000000
-0.392704,0.831605,0.392704,0.588034,0.555367,-0.588034,-0.707107,0.000000,-0.707107,0.295328,-0.492540,0.237132,1.000000
-0.385172,0.838621,0.385172,0.592994,0.544716,-0.592994,-0.707107,0.000000,-0.707107,0.288931,-0.498937,0.237132,1.000000
-0.377618,0.845464,0.377618,0.597833,0.534033,-0.597833,-0.707107,-0.000000,-0.707107,0.282568,-0.505300,0.237132,1.000000
-0.370047,0.852133,0.370047,0.602549,0.523325,-0.602549,-0.707107,0.000000,-0.707107,0.276240,-0.511628,0.237132,1.000000
-0.362462,0.858629,0.362462,0.607142,0.512598,-0.607142,-0.707107,-0.000000,-0.707107,0.269950,-0.517918,0.237132,1.000000
-0.354869,0.864949,0.354869,0.611611,0.501860,-0.611611,-0.707107,-0.000000,-0.707107,0.263701,-0.524167,0.237132,1.000000
-0.347272,0.871094,0.347272,0.615957,0.491116,-0.615957,-0.707107,-0.000000,-0.707107,0.257493,-0.530375,0.237132,1.000000
-0.339676,0.877064,0.339676,0.620178,0.480374,-0.620178,-0.707107,0.000000,-0.707107,0.251328,-0.536540,0.237132,1.000000
-0.332085,0.882859,0.332085,0.624275,0.469639,-0.624275,-0.707107,-0.000000,-0.707107,0.245210,-0.542658,0.237132,1.000000
-0.324505,0.888478,0.324505,0.628249,0.458919,-0.628249,-0.707107,-0.000000,-0.707107,0.239139,-0.548729,0.237132,1.000000
-0.316939,0.893924,0.316939,0.632099,0.448219,-0.632099,-0.707107,-0.000000,-0.707107,0.233117,-0.554751,0.237132,1.000000
-0.309393,0.899195,0.309393,0.635827,0.437547,-0.635827,-0.707107,-0.000000,-0.707107,0.227147,-0.560721,0.237132,1.000000
-0.301870,0.904295,0.301870,0.639433,0.426909,-0.639433,-0.707107,-0.000000,-0.707107,0.221229,-0.566639,0.237132,1.000000
-0.294376,0.909223,0.294376,0.642917,0.416310,-0.642917,-0.707107,-0.000000,-0.707107,0.215367,-0.572501,0.237132,1.000000
-0.286914,0.913980,0.286914,0.646282,0.405758,-0.646282,-0.707107,-0.000000,-0.707107,0.209561,-0.578307,0.237132,1.000000
-0.279490,0.918570,0.279490,0.649527,0.395259,-0.649527,-0.707107,-0.000000,-0.707107,0.203814,-0.584054,0.237132,1.000000
-0.272107,0.922993,0.272107,0.652654,0.384818,-0.652654,-0.707107,-0.000000,-0.707107,0.198126,-0.589742,0.237132,1.000000
-0.264770,0.927250,0.264770,0.655665,0.374442,-0.655665,-0.707107,-0.000000,-0.707107,0.192501,-0.595367,0.237132,1.000000
-0.257483,0.931346,0.257483,0.658561,0.364136,-0.658561,-0.707107,-0.000000,-0.707107,0.186938,-0.600929,0.237132,1.000000
-0.250250,0.935281,0.250250,0.661343,0.353907,-0.661343,-0.707107,-0.000000,-0.707107,0.181441,-0.606427,0.237132,1.000000
-0.243075,0.939058,0.243075,0.664014,0.343760,-0.664014,-0.707107,0.000000,-0.707107,0.176011,-0.611857,0.237132,1.000000
-0.235962,0.942679,0.235962,0.666575,0.333700,-0.666575,-0.707107,-0.000000,-0.707107,0.170648,-0.617220,0.237132,1.000000
-0.228914,0.946148,0.228914,0.669028,0.323734,-0.669028,-0.707107,-0.000000,-0.707107,0.165355,-0.622513,0.237132,1.000000
-0.221937,0.949467,0.221937,0.671375,0.313866,-0.671375,-0.707107,-0.000000,-0.707107,0.160133,-0.627735,0.237132,1.000000
-0.215032,0.952640,0.215032,0.673618,0.304102,-0.673618,-0.707107,-0.000000,-0.707107,0.154984,-0.632884,0.237132,1.000000
-0.208205,0.955668,0.208205,0.675759,0.294446,-0.675759,-0.707107,-0.000000,-0.707107,0.149908,-0.637960,0.237132,1.000000
-0.201458,0.958556,0.201458,0.677801,0.284904,-0.677801,-0.707107,0.000000,-0.707107,0.144908,-0.642960,0.237132,1.000000
-0.194794,0.961307,0.194794,0.679746,0.275480,-0.679746,-0.707107,-0.000000,-0.707107,0.139984,-0.647884,0.237132,1.000000
-0.188217,0.963923,0.188217,0.681597,0.266180,-0.681597,-0.707107,-0.000000,-0.707107,0.135137,-0.652731,0.237132,1.000000
-0.181731,0.966410,0.181731,0.683355,0.257006,-0.683355,-0.707107,0.000000,-0.707107,0.130370,-0.657498,0.237132,1.000000
-0.175337,0.968769,0.175337,0.685023,0.247964,-0.685023,-0.707107,-0.000000,-0.707107,0.125683,-0.662185,0.237132,1.000000
-0.169039,0.971005,0.169039,0.686605,0.239057,-0.686605,-0.707107,-0.000000,-0.707107,0.121077,-0.666791,0.237132,1.000000
-0.162840,0.973122,0.162840,0.688101,0.230290,-0.688101,-0.707107,-0.000000,-0.707107,0.116553,-0.671315,0.237132,1.000000
-0.156742,0.975123,0.156742,0.689516,0.221667,-0.689516,-0.707107,-0.000000,-0.707107,0.112113,-0.675755,0.237132,1.000000
-0.150748,0.977011,0.150748,0.690851,0.213190,-0.690851,-0.707107,-0.000000,-0.707107,0.107757,-0.680111,0.237132,1.000000
-0.144860,0.978791,0.144860,0.692110,0.204863,-0.692110,-0.707107,-0.000000,-0.707107,0.103486,-0.684382,0.237132,1.000000
-0.139081,0.980466,0.139081,0.693294,0.196690,-0.693294,-0.707107,0.000000,-0.707107,0.099302,-0.688566,0.237132,1.000000
-0.133412,0.982040,0.133412,0.694407,0.188673,-0.694407,-0.707107,-0.000000,-0.707107,0.095204,-0.692664,0.237132,1.000000
-0.127856,0.983517,0.127856,0.695452,0.180816,-0.695452,-0.707107,-0.000000,-0.707107,0.091194,-0.696674,0.237132,1.000000
-0.122415,0.984901,0.122415,0.696430,0.173120,-0.696430,-0.707107,-0.000000,-0.707107,0.087272,-0.700596,0.237132,1.000000
-0.117089,0.986195,0.117089,0.697345,0.165589,-0.697345,-0.707107,-0.000000,-0.707107,0.083439,-0.704429,0.237132,1.000000
-0.111882,0.987403,0.111882,0.698199,0.158225,-0.698199,-0.707107,-0.000000,-0.707107,0.079696,-0.708172,0.237132,1.000000
-0.106794,0.988529,0.106794,0.698996,0.151030,-0.698996,-0.707107,-0.000000,-0.707107,0.076044,-0.711824,0.237132,1.000000
-0.101828,0.989577,0.101828,0.699736,0.144006,-0.699736,-0.707107,-0.000000,-0.707107,0.072481,-0.715387,0.237132,1.000000
-0.096983,0.990550,0.096983,0.700424,0.137154,-0.700424,-0.707107,-0.000000,-0.707107,0.069010,-0.718858,0.237132,1.000000
-0.092261,0.991451,0.092261,0.701062,0.130477,-0.701062,-0.707107,-0.000000,-0.707107,0.065631,-0.722237,0.237132,1.000000
-0.087663,0.992285,0.087663,0.701652,0.123975,-0.701652,-0.707107,-0.000000,-0.707107,0.062343,-0.725525,0.237132,1.000000
-0.083191,0.993055,0.083191,0.702196,0.117650,-0.702196,-0.707107,0.000000,-0.707107,0.059147,-0.728721,0.237132,1.000000
-0.078844,0.993764,0.078844,0.702697,0.111502,-0.702697,-0.707107,0.000000,-0.707107,0.056043,-0.731825,0.237132,1.000000
-0.074624,0.994416,0.074624,0.703158,0.105534,-0.703158,-0.707107,-0.000000,-0.707107,0.053031,-0.734836,0.237132,1.000000
-0.070530,0.995013,0.070530,0.703581,0.099744,-0.703581,-0.707107,-0.000000,-0.707107,0.050112,-0.737756,0.237132,1.000000
-0.066563,0.995559,0.066563,0.703967,0.094134,-0.703967,-0.707107,0.000000,-0.707107,0.047285,-0.740583,0.237132,1.000000
-0.062724,0.996058,0.062724,0.704319,0.088705,-0.704319,-0.707107,0.000000,-0.707107,0.044550,-0.743318,0.237132,1.000000
-0.059012,0.996512,0.059012,0.704640,0.083455,-0.704640,-0.707107,-0.000000,-0.707107,0.041908,-0.745960,0.237132,1.000000
-0.055427,0.996923,0.055427,0.704931,0.078386,-0.704931,-0.707107,-0.000000,-0.707107,0.039357,-0.748511,0.237132,1.000000
-0.051970,0.997295,0.051970,0.705194,0.073496,-0.705194,-0.707107,-0.000000,-0.707107,0.036897,-0.750971,0.237132,1.000000
-0.048639,0.997631,0.048639,0.705432,0.068786,-0.705432,-0.707107,-0.000000,-0.707107,0.034528,-0.753339,0.237132,1.000000
-0.045435,0.997934,0.045435,0.705646,0.064255,-0.705646,-0.707107,-0.000000,-0.707107,0.032251,-0.755617,0.237132,1.000000
-0.042357,0.998204,0.042357,0.705837,0.059901,-0.705837,-0.707107,-0.000000,-0.707107,0.030063,-0.757805,0.237132,1.000000
-0.039403,0.998446,0.039403,0.706008,0.055725,-0.706008,-0.707107,-0.000000,-0.707107,0.027964,-0.759904,0.237132,1.000000
-0.036574,0.998661,0.036574,0.706160,0.051724,-0.706160,-0.707107,-0.000000,-0.707107,0.025955,-0.761913,0.237132,1.000000
-0.033869,0.998852,0.033869,0.706295,0.047898,-0.706295,-0.707107,-0.000000,-0.707107,0.024033,-0.763834,0.237132,1.000000
-0.031286,0.999021,0.031286,0.706414,0.044245,-0.706414,-0.707107,-0.000000,-0.707107,0.022199,-0.765669,0.237132,1.000000
-0.028824,0.999169,0.028824,0.706519,0.040763,-0.706519,-0.707107,-0.000000,-0.707107,0.020451,-0.767417,0.237132,1.000000
-0.026482,0.999298,0.026482,0.706611,0.037451,-0.706611,-0.707107,-0.000000,-0.707107,0.018789,-0.769079,0.237132,1.000000
-0.024258,0.999411,0.024258,0.706691,0.034306,-0.706691,-0.707107,-0.000000,-0.707107,0.017210,-0.770658,0.237132,1.000000
-0.022151,0.999509,0.022151,0.706760,0.031326,-0.706760,-0.707107,-0.000000,-0.707107,0.015715,-0.772153,0.237132,1.000000
-0.020159,0.999594,0.020159,0.706819,0.028509,-0.706819,-0.707107,-0.000000,-0.707107,0.014301,-0.773567,0.237132,1.000000
-0.018280,0.999666,0.018280,0.706870,0.025852,-0.706870,-0.707107,-0.000000,-0.707107,0.012968,-0.774900,0.237132,1.000000
-0.016512,0.999727,0.016512,0.706914,0.023352,-0.706914,-0.707107,-0.000000,-0.707107,0.011714,-0.776154,0.237132,1.000000
-0.014854,0.999779,0.014854,0.706951,0.021007,-0.706951,-0.707107,-0.000000,-0.707107,0.010537,-0.777331,0.237132,1.000000
-0.013303,0.999823,0.013303,0.706982,0.018813,-0.706982,-0.707107,-0.000000,-0.707107,0.009437,-0.778431,0.237132,1.000000
-0.011856,0.999859,0.011856,0.707007,0.016767,-0.707007,-0.707107,-0.000000,-0.707107,0.008410,-0.779458,0.237132,1.000000
-0.010511,0.999890,0.010511,0.707029,0.014865,-0.707029,-0.707107,-0.000000,-0.707107,0.007456,-0.780412,0.237132,1.000000
-0.009266,0.999914,0.009266,0.707046,0.013105,-0.707046,-0.707107,0.000000,-0.707107,0.006573,-0.781295,0.237132,1.000000
-0.008118,0.999934,0.008118,0.707060,0.011480,-0.707060,-0.707107,-0.000000,-0.707107,0.005758,-0.782110,0.237132,1.000000
-0.007063,0.999950,0.007063,0.707072,0.009989,-0.707072,-0.707107,-0.000000,-0.707107,0.005010,-0.782858,0.237132,1.000000
-0.006100,0.999963,0.006100,0.707080,0.008626,-0.707080,-0.707107,0.000000,-0.707107,0.004327,-0.783541,0.237132,1.000000
-0.005224,0.999973,0.005224,0.707087,0.007388,-0.707087,-0.707107,-0.000000,-0.707107,0.003705,-0.784163,0.237132,1.000000
-0.004432,0.999980,0.004432,0.707093,0.006268,-0.707093,-0.707107,-0.000000,-0.707107,0.003144,-0.784724,0.237132,1.000000
-0.003722,0.999986,0.003722,0.707097,0.005263,-0.707097,-0.707107,-0.000000,-0.707107,0.002640,-0.785228,0.237132,1.000000
-0.003088,0.999990,0.003088,0.707100,0.004368,-0.707100,-0.707107,-0.000000,-0.707107,0.002191,-0.785677,0.237132,1.000000
-0.002529,0.999994,0.002529,0.707102,0.003576,-0.707102,-0.707107,-0.000000,-0.707107,0.001794,-0.786074,0.237132,1.000000
-0.002039,0.999996,0.002039,0.707104,0.002884,-0.707104,-0.707107,-0.000000,-0.707107,0.001446,-0.786422,0.237132,1.000000
-0.001615,0.999997,0.001615,0.707105,0.002284,-0.707105,-0.707107,-0.000000,-0.707107,0.001146,-0.786722,0.237132,1.000000
-0.001253,0.999998,0.001253,0.707106,0.001772,-0.707106,-0.707107,-0.000000,-0.707107,0.000889,-0.786979,0.237132,1.000000
-0.000948,0.999999,0.000948,0.707106,0.001340,-0.707106,-0.707107,0.000000,-0.707107,0.000672,-0.787196,0.237132,1.000000
-0.000696,1.000000,0.000696,0.707106,0.000984,-0.707106,-0.707107,-0.000000,-0.707107,0.000494,-0.787374,0.237132,1.000000
-0.000492,1.000000,0.000492,0.707107,0.000696,-0.707107,-0.707107,-0.000000,-0.707107,0.000349,-0.787519,0.237132,1.000000
-0.000332,1.000000,0.000332,0.707107,0.000469,-0.707107,-0.707107,-0.000000,-0.707107,0.000235,-0.787633,0.237132,1.000000
-0.000210,1.000000,0.000210,0.707107,0.000298,-0.707107,-0.707107,-0.000000,-0.707107,0.000149,-0.787719,0.237132,1.000000
-0.000123,1.000000,0.000123,0.707107,0.000173,-0.707107,-0.707107,-0.000000,-0.707107,0.000087,-0.787781,0.237132,1.000000
-0.000063,1.000000,0.000063,0.707107,0.000089,-0.707107,-0.707107,-0.000000,-0.707107,0.000045,-0.787823,0.237132,1.000000
-0.000027,1.000000,0.000027,0.707107,0.000038,-0.707107,-0.707107,-0.000000,-0.707107,0.000019,-0.787849,0.237132,1.000000
-0.000008,1.000000,0.000008,0.707107,0.000011,-0.707107,-0.707107,-0.000000,-0.707107,0.000006,-0.787862,0.237132,1.000000
-0.000001,1.000000,0.000001,0.707107,0.000001,-0.707107,-0.707107,-0.000000,-0.707107,0.000001,-0.787867,0.237132,1.000000
0.000000,1.000000,-0.000000,0.707107,-0.000000,-0.707107,-0.707107,-0.000000,-0.707107,0.000000,-0.787868,0.237132,1.000000
0.000000,1.000000,0.000000,0.707107,0.000000,-0.707107,-0.707107,0.000000,-0.707107,0.000000,-0.787868,0.237132,1.000000
0.000000,1.000000,0.000000,0.707107,0.000000,-0.707107,-0.707107,0.000000,-0.707107,0.000000,-0.787877,0.237123,1.000000
0.000000,1.000000,0.000000,0.707107,0.000000,-0.707107,-0.707107,0.000000,-0.707107,0.000000,-0.787941,0.237059,1.000000
0.000000,1.000000,0.000000,0.707107,0.000000,-0.707107,-0.707107,0.000000,-0.707107,0.000000,-0.788108,0.236892,1.000000
0.000000,1.000000,0.000000,0.707107,0.000000,-0.707107,-0.707107,0.000000,-0.707107,0.000000,-0.788423,0.236577,1.000000
0.000000,1.000000,0.000000,0.707107,0.000000,-0.707107,-0.707107,0.000000,-0.707107,0.000000,-0.788923,0.236077,1.000000
0.000000,1.000000,0.000000,0.707107,0.000000,-0.707107,-0.707107,0.000000,-0.707107,0.000000,-0.789645,0.235355,1.000000
0.000000,1.000000,0.000000,0.707107,0.000000,-0.707107,-0.707107,0.000000,-0.707107,0.000000,-0.790615,0.234385,1.000000
0.000000,1.000000,0.000000,0.707107,0.000000,-0.707107,-0.707107,0.000000,-0.707107,0.000000,-0.791860,0.233140,1.000000
0.000000,1.000000,0.000000,0.707107,0.000000,-0.707107,-0.707107,0.000000,-0.707107,0.000000,-0.793400,0.231600,1.000000
0.000000,1.000000,0.000000,0.707107,0.000000,-0.707107,-0.707107,0.000000,-0.707107,0.000000,-0.795250,0.229750,1.000000
0.000000,1.000000,0.000000,0.707107,0.000000,-0.707107,-0.707107,0.000000,-0.707107,0.000000,-0.797423,0.227577,1.000000
0.000000,1.000000,0.000000,0.707107,0.000000,-0.707107,-0.707107,0.000000,-0.707107,0.000000,-0.799927,0.225073,1.000000
0.000000,1.000000,0.000000,0.707107,0.000000,-0.707107,-0.707107,0.000000,-0.707107,0.000000,-0.802767,0.222233,1.000000
0.000000,1.000000,0.000000,0.707107,0.000000,-0.707107,-0.707107,0.000000,-0.707107,0.000000,-0.805944,0.219056,1.000000
0.000000,1.000000,0.000000,0.707107,0.000000,-0.707107,-0.707107,0.000000,-0.707107,0.000000,-0.809456,0.215544,1.000000
0.000000,1.000000,0.000000,0.707107,0.000000,-0.707107,-0.707107,0.000000,-0.707107,0.000000,-0.813299,0.211701,1.000000
0.000000,1.000000,0.000000,0.707107,0.000000,-0.707107,-0.707107,0.000000,-0.707107,0.000000,-0.817465,0.207535,1.000000
0.000000,1.000000,0.000000,0.707107,0.000000,-0.707107,-0.707107,0.000000,-0.707107,0.000000,-0.821942,0.203058,1.000000
0.000000,1.000000,0.000000,0.707107,0.000000,-0.707107,-0.707107,0.000000,-0.707107,0.000000,-0.826718,0.198282,1.000000
0.000000,1.000000,0.000000,0.707107,0.000000,-0.707107,-0.707107,0.000000,-0.707107,0.000000,-0.831777,0.193223,1.000000
0.000000,1.000000,0.000000,0.707107,0.000000,-0.707107,-0.707107,0.000000,-0.707107,0.000000,-0.837103,0.187897,1.000000
0.000000,1.000000,0.000000,0.707107,0.000000,-0.707107,-0.707107,0.000000,-0.707107,0.000000,-0.842675,0.182325,1.000000
0.000000,1.000000,0.000000,0.707107,0.000000,-0.707107,-0.707107,0.000000,-0.707107,0.000000,-0.848472,0.176528,1.000000
0.000000,1.000000,0.000000,0.707107,0.000000,-0.707107,-0.707107,0.000000,-0.707107,0.000000,-0.854472,0.170528,1.000000
0.000000,1.000000,0.000000,0.707107,0.000000,-0.707107,-0.707107,0.000000,-0.707107,0.000000,-0.860650,0.164350,1.000000
0.000000,1.000000,0.000000,0.707107,0.000000,-0.707107,-0.707107,0.000000,-0.707107,0.000000,-0.866981,0.158019,1.000000
0.000000,1.000000,0.000000,0.707107,0.000000,-0.707107,-0.707107,0.000000,-0.707107,0.000000,-0.873438,0.151562,1.000000
0.000000,1.000000,0.000000,0.707107,0.000000,-0.707107,-0.707107,0.000000,-0.707107,0.000000,-0.879995,0.145005,1.000000
0.000000,1.000000,0.000000,0.707107,0.000000,-0.707107,-0.707107,0.000000,-0.707107,0.000000,-0.886623,0.138377,1.000000
0.000000,1.000000,0.000000,0.707107,0.000000,-0.707107,-0.707107,0.000000,-0.707107,0.000000,-0.893294,0.131706,1.000000
0.000000,1.000000,0.000000,0.707107,0.000000,-0.707107,-0.707107,0.000000,-0.707107,0.000000,-0.899979,0.125021,1.000000
0.000000,1.000000,0.000000,0.707107,0.000000,-0.707107,-0.707107,0.000000,-0.707107,0.000000,-0.906651,0.118349,1.000000
0.000000,1.000000,0.000000,0.707107,0.000000,-0.707107,-0.707107,0.000000,-0.707107,0.000000,-0.913279,0.111721,1.000000
0.000000,1.000000,0.000000,0.707107,0.000000,-0.707107,-0.707107,0.000000,-0.707107,0.000000,-0.919835,0.105165,1.000000
0.000000,1.000000,0.000000,0.707107,0.000000,-0.707107,-0.707107,0.000000,-0.707107,0.000000,-0.926293,0.098707,1.000000
0.000000,1.000000,0.000000,0.707107,0.000000,-0.707107,-0.707107,0.000000,-0.707107,0.000000,-0.932624,0.092376,1.000000
0.000000,1.000000,0.000000,0.707107,0.000000,-0.707107,-0.707107,0.000000,-0.707107,0.000000,-0.938802,0.086198,1.000000
0.000000,1.000000,0.000000,0.707107,0.000000,-0.707107,-0.707107,0.000000,-0.707107,0.000000,-0.944801,0.080199,1.000000
0.000000,1.000000,0.000000,0.707107,0.000000,-0.707107,-0.707107,0.000000,-0.707107,0.000000,-0.950599,0.074401,1.000000
0.000000,1.000000,0.000000,0.707107,0.000000,-0.707107,-0.707107,0.000000,-0.707107,0.000000,-0.956171,0.068829,1.000000
0.000000,1.000000,0.000000,0.707107,0.000000,-0.707107,-0.707107,0.000000,-0.707107,0.000000,-0.961496,0.063504,1.000000
0.000000,1.000000,0.000000,0.707107,0.000000,-0.707107,-0.707107,0.000000,-0.707107,0.000000,-0.966556,0.058444,1.000000
0.000000,1.000000,0.000000,0.707107,0.000000,-0.707107,-0.707107,0.000000,-0.707107,0.000000,-0.971332,0.053668,1.000000
0.000000,1.000000,0.000000,0.707107,0.000000,-0.707107,-0.707107,0.000000,-0.707107,0.000000,-0.975809,0.049191,1.000000
0.000000,1.000000,0.000000,0.707107,0.000000,-0.707107,-0.707107,0.000000,-0.707107,0.000000,-0.979974,0.045026,1.000000
0.000000,1.000000,0.000000,0.707107,0.000000,-0.707107,-0.707107,0.000000,-0.707107,0.000000,-0.983817,0.041183,1.000000
0.000000,1.000000,0.000000,0.707107,0.000000,-0.707107,-0.707107,0.000000,-0.707107,0.000000,-0.987330,0.037670,1.000000
0.000000,1.000000,0.000000,0.707107,0.000000,-0.707107,-0.707107,0.000000,-0.707107,0.000000,-0.990507,0.034493,1.000000
0.000000,1.000000,0.000000,0.707107,0.000000,-0.707107,-0.707107,0.000000,-0.707107,0.000000,-0.993347,0.031653,1.000000
0.000000,1.000000,0.000000,0.707107,0.000000,-0.707107,-0.707107,0.000000,-0.707107,0.000000,-0.995851,0.029149,1.000000
0.000000,1.000000,0.000000,0.707107,0.000000,-0.707107,-0.707107,0.000000,-0.707107,0.000000,-0.998024,0.026976,1.000000
0.000000,1.000000,0.000000,0.707107,0.000000,-0.707107,-0.707107,0.000000,-0.707107,0.000000,-0.999874,0.025126,1.000000
0.000000,1.000000,0.000000,0.707107,0.000000,-0.707107,-0.707107,0.000000,-0.707107,0.000000,-1.001413,0.023587,1.000000
0.000000,1.000000,0.000000,0.707107,0.000000,-0.707107,-0.707107,0.000000,-0.707107,0.000000,-1.002658,0.022342,1.000000
0.000000,1.000000,0.000000,0.707107,0.000000,-0.707107,-0.707107,0.000000,-0.707107,0.000000,-1.003629,0.021371,1.000000
0.000000,1.000000,0.000000,0.707107,0.000000,-0.707107,-0.707107,0.000000,-0.707107,0.000000,-1.004350,0.020650,1.000000
0.000000,1.000000,0.000000,0.707107,0.000000,-0.707107,-0.707107,0.000000,-0.707107,0.000000,-1.004851,0.020149,1.000000
0.000000,1.000000,0.000000,0.707107,0.000000,-0.707107,-0.707107,0.000000,-0.707107,0.000000,-1.005166,0.019834,1.000000
0.000000,1.000000,0.000000,0.707107,0.000000,-0.707107,-0.707107,0.000000,-0.707107,0.000000,-1.005333,0.019667,1.000000
0.000000,1.000000,0.000000,0.707107,0.000000,-0.707107,-0.707107,0.000000,-0.707107,0.000000,-1.005396,0.019604,1.000000
0.000000,1.000000,0.000000,0.707107,0.000000,-0.707107,-0.707107,0.000000,-0.707107,0.000000,-1.005406,0.019594,0.000000
0.000000,1.000000,0.000000,0.707107,0.000000,-0.707107,-0.707107,0.000000,-0.707107,0.000000,-1.005406,0.019594,0.000000
0.000000,1.000000,0.000000,0.707107,0.000000,-0.707107,-0.707107,0.000000,-0.707107,0.000000,-1.005406,0.019594,0.000000
0.000000,1.000000,0.000000,0.707107,0.000000,-0.707107,-0.707107,0.000000,-0.707107,0.000000,-1.005406,0.019594,0.000000
0.000000,1.000000,0.000000,0.707107,0.000000,-0.707107,-0.707107,0.000000,-0.707107,0.000000,-1.005406,0.019594,0.000000
0.000000,1.000000,0.000000,0.707107,0.000000,-0.707107,-0.707107,0.000000,-0.707107,0.000000,-1.005406,0.019594,0.000000
0.000000,1.000000,0.000000,0.707107,0.000000,-0.707107,-0.707107,0.000000,-0.707107,0.000000,-1.005406,0.019594,0.000000
0.000000,1.000000,0.000000,0.707107,0.000000,-0.707107,-0.707107,0.000000,-0.707107,0.000000,-1.005406,0.019594,0.000000
0.000000,1.000000,0.000000,0.707107,0.000000,-0.707107,-0.707107,0.000000,-0.707107,0.000000,-1.005406,0.019594,0.000000
0.000000,1.000000,0.000000,0.707107,0.000000,-0.707107,-0.707107,0.000000,-0.707107,0.000000,-1.005406,0.019594,0.000000
0.000000,1.000000,0.000000,0.707107,0.000000,-0.707107,-0.707107,0.000000,-0.707107,0.000000,-1.005406,0.019594,0.000000
0.000000,1.000000,0.000000,0.707107,0.000000,-0.707107,-0.707107,0.000000,-0.707107,0.000000,-1.005406,0.019594,0.000000
0.000000,1.000000,0.000000,0.707107,0.000000,-0.707107,-0.707107,0.000000,-0.707107,0.000000,-1.005406,0.019594,0.000000
0.000000,1.000000,0.000000,0.707107,0.000000,-0.707107,-0.707107,0.000000,-0.707107,0.000000,-1.005406,0.019594,0.000000
0.000000,1.000000,0.000000,0.707107,0.000000,-0.707107,-0.707107,0.000000,-0.707107,0.000000,-1.005406,0.019594,0.000000
0.000000,1.000000,0.000000,0.707107,0.000000,-0.707107,-0.707107,0.000000,-0.707107,0.000000,-1.005406,0.019594,0.000000
0.000000,1.000000,0.000000,0.707107,0.000000,-0.707107,-0.707107,0.000000,-0.707107,0.000000,-1.005406,0.019594,0.000000
0.000000,1.000000,0.000000,0.707107,0.000000,-0.707107,-0.707107,0.000000,-0.707107,0.000000,-1.005406,0.019594,0.000000
0.000000,1.000000,0.000000,0.707107,0.000000,-0.707107,-0.707107,0.000000,-0.707107,0.000000,-1.005406,0.019594,0.000000
0.000000,1.000000,0.000000,0.707107,0.000000,-0.707107,-0.707107,0.000000,-0.707107,0.000000,-1.005406,0.019594,0.000000
0.000000,1.000000,0.000000,0.707107,0.000000,-0.707107,-0.707107,0.000000,-0.707107,0.000000,-1.005406,0.019594,0.000000
0.000000,1.000000,0.000000,0.707107,0.000000,-0.707107,-0.707107,0.000000,-0.707107,0.000000,-1.005406,0.019594,0.000000
0.000000,1.000000,0.000000,0.707107,0.000000,-0.707107,-0.707107,0.000000,-0.707107,0.000000,-1.005406,0.019594,0.000000
0.000000,1.000000,0.000000,0.707107,0.000000,-0.707107,-0.707107,0.000000,-0.707107,0.000000,-1.005406,0.019594,0.000000
0.000000,1.000000,0.000000,0.707107,0.000000,-0.707107,-0.707107,0.000000,-0.707107,0.000000,-1.005406,0.019594,0.000000
0.000000,1.000000,0.000000,0.707107,0.000000,-0.707107,-0.707107,0.000000,-0.707107,0.000000,-1.005406,0.019594,0.000000
0.000000,1.000000,0.000000,0.707107,0.000000,-0.707107,-0.707107,0.000000,-0.707107,0.000000,-1.005406,0.019594,0.000000
0.000000,1.000000,0.000000,0.707107,0.000000,-0.707107,-0.707107,0.000000,-0.707107,0.000000,-1.005406,0.019594,0.000000
0.000000,1.000000,0.000000,0.707107,0.000000,-0.707107,-0.707107,0.000000,-0.707107,0.000000,-1.005406,0.019594,0.000000
0.000000,1.000000,0.000000,0.707107,0.000000,-0.707107,-0.707107,0.000000,-0.707107,0.000000,-1.005406,0.019594,0.000000
0.000000,1.000000,0.000000,0.707107,0.000000,-0.707107,-0.707107,0.000000,-0.707107,0.000000,-1.005406,0.019594,0.000000
0.000000,1.000000,0.000000,0.707107,0.000000,-0.707107,-0.707107,0.000000,-0.707107,0.000000,-1.005406,0.019594,0.000000
0.000000,1.000000,0.000000,0.707107,0.000000,-0.707107,-0.707107,0.000000,-0.707107,0.000000,-1.005406,0.019594,0.000000
0.000000,1.000000,0.000000,0.707107,0.000000,-0.707107,-0.707107,0.000000,-0.707107,0.000000,-1.005406,0.019594,0.000000
0.000000,1.000000,0.000000,0.707107,0.000000,-0.707107,-0.707107,0.000000,-0.707107,0.000000,-1.005406,0.019594,0.000000
0.000000,1.000000,0.000000,0.707107,0.000000,-0.707107,-0.707107,0.000000,-0.707107,0.000000,-1.005406,0.019594,0.000000
0.000000,1.000000,0.000000,0.707107,0.000000,-0.707107,-0.707107,0.000000,-0.707107,0.000000,-1.005406,0.019594,0.000000
0.000000,1.000000,0.000000,0.707107,0.000000,-0.707107,-0.707107,0.000000,-0.707107,0.000000,-1.005406,0.019594,0.000000
0.000000,1.000000,0.000000,0.707107,0.000000,-0.707107,-0.707107,0.000000,-0.707107,0.000000,-1.005406,0.019594,0.000000
0.000000,1.000000,0.000000,0.707107,0.000000,-0.707107,-0.707107,0.000000,-0.707107,0.000000,-1.005406,0.019594,0.000000
0.000000,1.000000,0.000000,0.707107,0.000000,-0.707107,-0.707107,0.000000,-0.707107,0.000000,-1.005406,0.019594,0.000000
0.000000,1.000000,0.000000,0.707107,0.000000,-0.707107,-0.707107,0.000000,-0.707107,0.000000,-1.005406,0.019594,0.000000
0.000000,1.000000,0.000000,0.707107,0.000000,-0.707107,-0.707107,0.000000,-0.707107,0.000000,-1.005406,0.019594,0.000000
0.000000,1.000000,0.000000,0.707107,0.000000,-0.707107,-0.707107,0.000000,-0.707107,0.000000,-1.005406,0.019594,0.000000
0.000000,1.000000,0.000000,0.707107,0.000000,-0.707107,-0.707107,0.000000,-0.707107,0.000000,-1.005406,0.019594,0.000000
0.000000,1.000000,0.000000,0.707107,0.000000,-0.707107,-0.707107,0.000000,-0.707107,0.000000,-1.005406,0.019594,0.000000
0.000000,1.000000,0.000000,0.707107,0.000000,-0.707107,-0.707107,0.000000,-0.707107,0.000000,-1.005406,0.019594,0.000000
0.000000,1.000000,0.000000,0.707107,0.000000,-0.707107,-0.707107,0.000000,-0.707107,0.000000,-1.005406,0.019594,0.000000
0.000000,1.000000,0.000000,0.707107,0.000000,-0.707107,-0.707107,0.000000,-0.707107,0.000000,-1.005406,0.019594,0.000000
0.000000,1.000000,0.000000,0.707107,0.000000,-0.707107,-0.707107,0.000000,-0.707107,0.000000,-1.005406,0.019594,0.000000
0.000000,1.000000,0.000000,0.707107,0.000000,-0.707107,-0.707107,0.000000,-0.707107,0.000000,-1.005406,0.019594,0.000000
0.000000,1.000000,0.000000,0.707107,0.000000,-0.707107,-0.707107,0.000000,-0.707107,0.000000,-1.005406,0.019594,0.000000
0.000000,1.000000,0.000000,0.707107,0.000000,-0.707107,-0.707107,0.000000,-0.707107,0.000000,-1.005406,0.019594,0.000000
0.000000,1.000000,0.000000,0.707107,0.000000,-0.707107,-0.707107,0.000000,-0.707107,0.000000,-1.005406,0.019594,0.000000
0.000000,1.000000,0.000000,0.707107,0.000000,-0.707107,-0.707107,0.000000,-0.707107,0.000000,-1.005406,0.019594,0.000000
0.000000,1.000000,0.000000,0.707107,0.000000,-0.707107,-0.707107,0.000000,-0.707107,0.000000,-1.005406,0.019594,0.000000
0.000000,1.000000,0.000000,0.707107,0.000000,-0.707107,-0.707107,0.000000,-0.707107,0.000000,-1.005406,0.019594,0.000000
0.000000,1.000000,0.000000,0.707107,0.000000,-0.707107,-0.707107,0.000000,-0.707107,0.000000,-1.005406,0.019594,0.000000
0.000000,1.000000,0.000000,0.707107,0.000000,-0.707107,-0.707107,0.000000,-0.707107,0.000000,-1.005406,0.019594,0.000000
0.000000,1.000000,0.000000,0.707107,0.000000,-0.707107,-0.707107,0.000000,-0.707107,0.000000,-1.005406,0.019594,0.000000
0.000000,1.000000,0.000000,0.707107,0.000000,-0.707107,-0.707107,0.000000,-0.707107,0.000000,-1.005406,0.019594,0.000000
0.000000,1.000000,0.000000,0.707107,0.000000,-0.707107,-0.707107,0.000000,-0.707107,0.000000,-1.005406,0.019594,0.000000
0.000000,1.000000,0.000000,0.707107,0.000000,-0.707107,-0.707107,0.000000,-0.707107,0.000000,-1.005406,0.019594,0.000000
0.000000,1.000000,0.000000,0.707107,0.000000,-0.707107,-0.707107,0.000000,-0.707107,0.000000,-1.005406,0.019594,0.000000
